!!!!SEGMENT: pl-cz--iii-449_maader-ludwik--ave-virgo.krn
!!!cenid: 17xx:978
!!!COM: Maader, Ludwik
!!!COM-rismID: pe30020328
!!!CDT: <1794->1798
!!!CNT:
!!!OTL: Ave virgo
!!!PDT:
!!!AGN: Sacred
!!!SMS-siglum: PL-CZ
!!!SMS-shelfmark: III-449
!!!SMS-shelfwork: W
!!!SMS-variant:
!!!SMS-altvar:
!!!NIFC-rismSourceID: 300000752
!!!NIFC-rismChildID: 300000752
!!!NIFC-islandoraID: pl-cz:38410
!!!URL-pdf-islandora: https://repozytorium.nifc.pl/islandora/object/pl-cz%3A38410/datastream/PDF/view
!!!URL-scan:
!!!ONB-nifc: UWAGA: w okładce fragment innego utworu
!!!AIN: 1 alto 1 bass 1 organ 1 soprn 1 tenor 2 tromb 2 violn
!!!key: A
**kern	**fba	**dynam	**kern	**dynam	**kern	**dynam	**kern	**text	**dynam	**kern	**text	**dynam	**kern	**text	**dynam	**kern	**text	**dynam	**kern	**dynam	**kern	**dynam
*	*	*	*group3	*	*group3	*	*group2	*	*	*group2	*	*	*group2	*	*	*group2	*	*	*group1	*	*group1	*
*part9	*part9	*part9	*part8	*part8	*part7	*part7	*part6	*part6	*part6	*part5	*part5	*part5	*part4	*part4	*part4	*part3	*part3	*part3	*part2	*part2	*part1	*part1
*staff9	*	*	*staff8	*	*staff7	*	*staff6	*staff6	*	*staff5	*staff5	*	*staff4	*staff4	*	*staff3	*staff3	*	*staff2	*	*staff1	*
*I"Organo.	*	*	*I"Violino Secondo.	*	*I"Violino Primo.	*	*I"Baſso.	*	*	*I"Tenore	*	*	*I"Alto	*	*	*I"Canto	*	*	*I"Clarino IIdo ex A	*	*I"Clarino Imo ex A dur	*
*I'org	*	*	*I'vl 2	*	*I'vl 1	*	*I'B	*	*	*I'T	*	*	*I'A	*	*	*I'S	*	*	*I'clno 2 in A.	*	*I'clno 1 in A	*
*Iorgan	*	*	*Ivioln	*	*Ivioln	*	*Ibass	*	*	*Itenor	*	*	*Ialto	*	*	*Isoprn	*	*	*Itromb	*	*Itromb	*
*ICklav	*	*	*ICstr	*	*ICstr	*	*ICvox	*	*	*ICvox	*	*	*ICvox	*	*	*ICvox	*	*	*ICbras	*	*ICbras	*
*clefF4	*	*	*clefG2	*	*clefG2	*	*clefF4	*	*	*clefC4	*	*	*clefC3	*	*	*clefC1	*	*	*clefG2	*	*clefG2	*
*	*	*	*	*	*	*	*	*	*	*	*	*	*	*	*	*	*	*	*ITrd2c3	*	*ITrd2c3	*
*k[f#c#g#]	*	*	*k[f#c#g#]	*	*k[f#c#g#]	*	*k[f#c#g#]	*	*	*k[c#f#g#]	*	*	*k[f#c#g#]	*	*	*k[c#g#f#]	*	*	*k[f#c#g#]	*	*k[f#c#g#]	*
*A:	*	*	*A:	*	*A:	*	*A:	*	*	*A:	*	*	*A:	*	*	*A:	*	*	*A:	*	*A:	*
*M3/4	*	*	*M3/4	*	*M3/4	*	*M3/4	*	*	*M3/4	*	*	*M3/4	*	*	*M3/4	*	*	*M3/4	*	*M3/4	*
*all\right	*	*	*	*	*	*	*	*	*	*	*	*	*	*	*	*	*	*	*	*	*	*
=1	=1	=1	=1	=1	=1	=1	=1	=1	=1	=1	=1	=1	=1	=1	=1	=1	=1	=1	=1	=1	=1	=1
!LO:TX:b:i:t=mezze voce	!	!	!LO:TX:a:i:t=mezze voce dolce.	!	!LO:TX:a:i:t=mezze voce Dolce.	!	!	!	!	!	!	!	!	!	!	!LO:TX:a:Bi:t=Andante	!	!	!	!	!	!
!LO:TX:a:Bi:t=Andante	!	!LO:DY:t=pia	!LO:TX:a:Bi:t=Andante	!	!LO:TX:a:Bi:t=Andante	!	!LO:TX:a:Bi:t=Andante	!	!	!LO:TX:a:Bi:t=Andante	!	!	!LO:TX:a:Bi:t=Andante	!	!	!LO:TX:a:t=13:color=grey	!	!	!LO:TX:a:Bi:t=Andante	!LO:DY:a	!LO:TX:a:Bi:t=Andante	!
4A\	.	p	4c#/	.	4a\	.	0.r	.	.	0.r	.	.	0.r	.	.	0.r	.	.	4c#/	p	4a\	p
4AA/	.	.	4c#/	.	4a\	.	.	.	.	.	.	.	.	.	.	.	.	.	4c#/	.	4a\	.
4r	.	.	8f#/L	.	(8dd\L	.	.	.	.	.	.	.	.	.	.	.	.	.	4r	.	4r	.
.	.	.	8e/J	.	8cc#\J)	.	.	.	.	.	.	.	.	.	.	.	.	.	.	.	.	.
=2	=2	=2	=2	=2	=2	=2	=2	=2	=2	=2	=2	=2	=2	=2	=2	=2	=2	=2	=2	=2	=2	=2
4E\	6 4	.	8e/L	.	(8cc#\L	.	.	.	.	.	.	.	.	.	.	.	.	.	4e/	.	4e/	.
.	5 3	.	8d/J	.	8b\J)	.	.	.	.	.	.	.	.	.	.	.	.	.	.	.	.	.
8A\L|	.	.	4c#/	.	4a\|	.	.	.	.	.	.	.	.	.	.	.	.	.	4c#/	.	4a\	.
8E\J|	.	.	.	.	.	.	.	.	.	.	.	.	.	.	.	.	.	.	.	.	.	.
8C#/L|	.	.	4r	.	4r	.	.	.	.	.	.	.	.	.	.	.	.	.	4r	.	4r	.
8AA/J|	.	.	.	.	.	.	.	.	.	.	.	.	.	.	.	.	.	.	.	.	.	.
=3	=3	=3	=3	=3	=3	=3	=3	=3	=3	=3	=3	=3	=3	=3	=3	=3	=3	=3	=3	=3	=3	=3
4A\	.	.	4a\	.	4cc#\	.	.	.	.	.	.	.	.	.	.	.	.	.	4a\	.	4cc#\	.
4AA/	.	.	4a\	.	4cc#\	.	.	.	.	.	.	.	.	.	.	.	.	.	4a\	.	4cc#\	.
4r	.	.	8dd\L	.	(8ff#\L	.	.	.	.	.	.	.	.	.	.	.	.	.	4r	.	4r	.
.	.	.	8cc#\J	.	8ee\J)	.	.	.	.	.	.	.	.	.	.	.	.	.	.	.	.	.
!LO:LB:g=original	!	!	!	!	!	!	!	!	!	!	!	!	!	!	!	!	!	!	!	!	!	!
=4	=4	=4	=4	=4	=4	=4	=4	=4	=4	=4	=4	=4	=4	=4	=4	=4	=4	=4	=4	=4	=4	=4
4GG#/	6 4	.	8cc#\L	.	(8ee\L	.	.	.	.	.	.	.	.	.	.	.	.	.	8cc#\L	.	8ee\L	.
.	5 3	.	8b\J	.	8dd\J)	.	.	.	.	.	.	.	.	.	.	.	.	.	8b\J	.	8dd\J	.
8AA/L	.	.	4a\	.	4cc#\|	.	.	.	.	.	.	.	.	.	.	.	.	.	4a\	.	4cc#\	.
8C#/J	.	.	.	.	.	.	.	.	.	.	.	.	.	.	.	.	.	.	.	.	.	.
8E\L	.	.	8r	.	8r	.	.	.	.	.	.	.	.	.	.	.	.	.	8r	.	8r	.
8A\J	.	.	8cc#\	.	8ee\|	.	.	.	.	.	.	.	.	.	.	.	.	.	8cc#\	.	8ee\	.
=5	=5	=5	=5	=5	=5	=5	=5	=5	=5	=5	=5	=5	=5	=5	=5	=5	=5	=5	=5	=5	=5	=5
4B\	9 4	.	8cc#\L	.	(8ee\L	.	0.r	.	.	0.r	.	.	0.r	.	.	0.r	.	.	8cc#\L	.	8ee\L	.
.	8_ 3_	.	8b\J	.	8dd\J)	.	.	.	.	.	.	.	.	.	.	.	.	.	8b\J	.	8dd\J	.
8B\L	.	.	4b\	.	4dd\|	.	.	.	.	.	.	.	.	.	.	.	.	.	4b\	.	4dd\	.
8E\	7	.	.	.	.	.	.	.	.	.	.	.	.	.	.	.	.	.	.	.	.	.
8G#\	.	.	8r	.	8r	.	.	.	.	.	.	.	.	.	.	.	.	.	8r	.	8r	.
8E\J	.	.	8b\	.	8dd\	.	.	.	.	.	.	.	.	.	.	.	.	.	8b\	.	8dd\	.
!	!	!	!LO:LB:g=original	!	!LO:LB:g=original	!	!	!	!	!	!	!	!	!	!	!	!	!	!	!	!	!
=6	=6	=6	=6	=6	=6	=6	=6	=6	=6	=6	=6	=6	=6	=6	=6	=6	=6	=6	=6	=6	=6	=6
4A\	9 4	.	8b\L	.	8dd\L	.	.	.	.	.	.	.	.	.	.	.	.	.	8b\L	.	8dd\L	.
.	.	.	8a\J	.	8cc#\J	.	.	.	.	.	.	.	.	.	.	.	.	.	8a\J	.	8cc#\J	.
!LO:TX:t=P:problem=mixed beam	!	!	!	!	!	!	!	!	!	!	!	!	!	!	!	!	!	!	!	!	!	!
8A\L	8	.	4a\	.	4cc#\	.	.	.	.	.	.	.	.	.	.	.	.	.	4a\	.	4cc#\	.
8AA/	.	.	.	.	.	.	.	.	.	.	.	.	.	.	.	.	.	.	.	.	.	.
8C#/	6	.	8r	.	8r	.	.	.	.	.	.	.	.	.	.	.	.	.	4r	.	4r	.
8AA/J	.	.	8e/	.	8cc#\	.	.	.	.	.	.	.	.	.	.	.	.	.	.	.	.	.
!	!	!	!	!	!	!	!	!	!	!	!	!	!	!	!	!	!	!	!LO:LB:g=original	!	!	!
=7	=7	=7	=7	=7	=7	=7	=7	=7	=7	=7	=7	=7	=7	=7	=7	=7	=7	=7	=7	=7	=7	=7
4D\	.	.	16e/LL	.	16cc#\LL	.	.	.	.	.	.	.	.	.	.	.	.	.	4r	.	4r	.
.	.	.	16d/	.	16b\	.	.	.	.	.	.	.	.	.	.	.	.	.	.	.	.	.
.	.	.	16f#/	.	16dd\	.	.	.	.	.	.	.	.	.	.	.	.	.	.	.	.	.
.	.	.	16d/JJ	.	16b\JJ	.	.	.	.	.	.	.	.	.	.	.	.	.	.	.	.	.
4E\	6 4	.	4c#/	.	4a/	.	.	.	.	.	.	.	.	.	.	.	.	.	4a\	.	4cc#\	.
4EE/	5 3	.	4B/	.	4g#/	.	.	.	.	.	.	.	.	.	.	.	.	.	4e/	.	4b\	.
=8	=8	=8	=8	=8	=8	=8	=8	=8	=8	=8	=8	=8	=8	=8	=8	=8	=8	=8	=8	=8	=8	=8
.	.	.	8qqB/	.	8qqg#/	.	.	.	.	.	.	.	.	.	.	.	.	.	.	.	.	.
4AA/	.	.	4.c#/	.	4.a/	.	.	.	.	.	.	.	.	.	.	.	.	.	4a\	.	4cc#\	.
*	*	*	*	*	*	*	*	*	*	*	*	*	*	*	*	*	*	*	*2\right	*	*2\right	*
4C#/	6	.	.	.	.	.	.	.	.	.	.	.	.	.	.	.	.	.	2a\	.	2cc#\	.
.	.	.	8cc#\L	.	8ee\L	.	.	.	.	.	.	.	.	.	.	.	.	.	.	.	.	.
4C#/	.	.	8cc#\	.	8ee\	.	.	.	.	.	.	.	.	.	.	.	.	.	.	.	.	.
.	.	.	8cc#\J	.	8ee\J	.	.	.	.	.	.	.	.	.	.	.	.	.	.	.	.	.
!LO:LB:g=original	!	!	!	!	!	!	!	!	!	!	!	!	!	!	!	!	!	!	!	!	!LO:LB:g=original	!
=9	=9	=9	=9	=9	=9	=9	=9	=9	=9	=9	=9	=9	=9	=9	=9	=9	=9	=9	=9	=9	=9	=9
4D\	.	.	16dd\LL	.	16ff#\LL	.	0.r	.	.	0.r	.	.	0.r	.	.	0.r	.	.	2a\	.	2.dd\	.
.	.	.	16cc#\	.	16ee\	.	.	.	.	.	.	.	.	.	.	.	.	.	.	.	.	.
.	.	.	16dd\	.	16ff#\	.	.	.	.	.	.	.	.	.	.	.	.	.	.	.	.	.
.	.	.	16ee\JJ	.	16gg#\JJ	.	.	.	.	.	.	.	.	.	.	.	.	.	.	.	.	.
4D\	.	.	8dd\L	.	8ff#\L	.	.	.	.	.	.	.	.	.	.	.	.	.	.	.	.	.
.	.	.	8dd\	.	8aa\	.	.	.	.	.	.	.	.	.	.	.	.	.	.	.	.	.
4D\	4 2	.	8dd\	.	8gg#\	.	.	.	.	.	.	.	.	.	.	.	.	.	4r	.	.	.
.	.	.	8dd\J	.	8bb\J	.	.	.	.	.	.	.	.	.	.	.	.	.	.	.	.	.
=10	=10	=10	=10	=10	=10	=10	=10	=10	=10	=10	=10	=10	=10	=10	=10	=10	=10	=10	=10	=10	=10	=10
4C#\	6	.	16cc#\LL	.	16aa\LL	.	.	.	.	.	.	.	.	.	.	.	.	.	2.a\	.	2.cc#\	.
.	.	.	16b\	.	16gg#\	.	.	.	.	.	.	.	.	.	.	.	.	.	.	.	.	.
.	.	.	16cc#\	.	16aa\	.	.	.	.	.	.	.	.	.	.	.	.	.	.	.	.	.
.	.	.	16dd\JJ	.	16bb\JJ	.	.	.	.	.	.	.	.	.	.	.	.	.	.	.	.	.
4C#\	.	.	8cc#\L	.	8aa\L	.	.	.	.	.	.	.	.	.	.	.	.	.	.	.	.	.
.	.	.	8cc#\	.	8ee\	.	.	.	.	.	.	.	.	.	.	.	.	.	.	.	.	.
4C#\	.	.	8cc#\	.	8ee\	.	.	.	.	.	.	.	.	.	.	.	.	.	.	.	.	.
.	.	.	8cc#\J	.	8ee\J	.	.	.	.	.	.	.	.	.	.	.	.	.	.	.	.	.
!	!	!	!LO:LB:g=original	!	!	!	!	!	!	!	!	!	!	!	!	!	!	!	!	!	!	!
=11	=11	=11	=11	=11	=11	=11	=11	=11	=11	=11	=11	=11	=11	=11	=11	=11	=11	=11	=11	=11	=11	=11
4D\	.	.	16dd\LL	.	16ff#\LL	.	.	.	.	.	.	.	.	.	.	.	.	.	2a\	.	2.dd\	.
.	.	.	16cc#\	.	16ee\	.	.	.	.	.	.	.	.	.	.	.	.	.	.	.	.	.
.	.	.	16dd\	.	16ff#\	.	.	.	.	.	.	.	.	.	.	.	.	.	.	.	.	.
.	.	.	16ee\JJ	.	16gg#\JJ	.	.	.	.	.	.	.	.	.	.	.	.	.	.	.	.	.
4D\	.	.	8dd\L	.	8ff#\L	.	.	.	.	.	.	.	.	.	.	.	.	.	.	.	.	.
.	.	.	8dd\	.	8aa\	.	.	.	.	.	.	.	.	.	.	.	.	.	.	.	.	.
4D\	4 2	.	8dd\	.	8gg#\	.	.	.	.	.	.	.	.	.	.	.	.	.	4r	.	.	.
.	.	.	8dd\J	.	8bb\J	.	.	.	.	.	.	.	.	.	.	.	.	.	.	.	.	.
!	!	!	!	!	!LO:LB:g=original	!	!	!	!	!	!	!	!	!	!	!	!	!	!	!	!	!
=12	=12	=12	=12	=12	=12	=12	=12	=12	=12	=12	=12	=12	=12	=12	=12	=12	=12	=12	=12	=12	=12	=12
4C#\	.	.	16cc#\LL	.	16aa\LL	.	.	.	.	.	.	.	.	.	.	.	.	.	4a\	.	4cc#\	.
.	.	.	16b\	.	16gg#\	.	.	.	.	.	.	.	.	.	.	.	.	.	.	.	.	.
.	.	.	16cc#\	.	16aa\	.	.	.	.	.	.	.	.	.	.	.	.	.	.	.	.	.
.	.	.	16dd\JJ	.	16bb\JJ	.	.	.	.	.	.	.	.	.	.	.	.	.	.	.	.	.
4C#\	.	.	8cc#\L	.	8aa\L	.	.	.	.	.	.	.	.	.	.	.	.	.	4r	.	4r	.
.	.	.	8cc#\	.	8ee\	.	.	.	.	.	.	.	.	.	.	.	.	.	.	.	.	.
8D\L	8 6	.	8b\	.	8dd\	.	.	.	.	.	.	.	.	.	.	.	.	.	4a\	.	4cc#\	.
8D#X\J	7 5	.	8a\J	.	8cc#\J	.	.	.	.	.	.	.	.	.	.	.	.	.	.	.	.	.
=13	=13	=13	=13	=13	=13	=13	=13	=13	=13	=13	=13	=13	=13	=13	=13	=13	=13	=13	=13	=13	=13	=13
4E\	6 4	.	4a/	.	4cc#\	.	2.r	.	.	2.r	.	.	2.r	.	.	2.r	.	.	4a\	.	4cc#\	.
8E\L	5 3	.	4g#/	.	4b\	.	.	.	.	.	.	.	.	.	.	.	.	.	4e/	.	4b\	.
8Dn\|	.	.	.	.	.	.	.	.	.	.	.	.	.	.	.	.	.	.	.	.	.	.
!	!	!	!	!	!	!	!	!	!	!	!	!	!	!	!	!	!	!	!	!LO:DY:t=forte	!	!
8C#\|	.	.	4r	.	4r	.	.	.	.	.	.	.	.	.	.	.	.	.	4r	f	4r	f
8BB\J|	.	.	.	.	.	.	.	.	.	.	.	.	.	.	.	.	.	.	.	.	.	.
!LO:LB:g=original	!	!	!	!	!	!	!	!	!	!	!	!	!	!	!	!	!	!	!	!	!	!
=14	=14	=14	=14	=14	=14	=14	=14	=14	=14	=14	=14	=14	=14	=14	=14	=14	=14	=14	=14	=14	=14	=14
*	*	*	*	*	*	*	*2\right	*	*	*	*	*	*2\right	*	*	*2\right	*	*	*	*	*	*
!LO:TX:a:i:t=Tutti	!	!	!LO:TX:a:i:t=Tutti:rj	!LO:DY:rj	!LO:TX:a:i:t=Tutti:rj	!LO:DY:rj:t=fortiſ&colon;	!	!	!	!	!	!	!	!	!	!	!	!	!LO:TX:a:i:t=Tutti	!	!LO:TX:a:i:t=Tutti	!
4AA/	.	.	4c#/	f	4a\	ff	2A\	A-	.	2E/	A-	.	2c#\	A-	.	2a\	A-	.	4c#/	.	4a\	.
4A\	.	.	4c#/	.	4a\	.	.	.	.	.	.	.	.	.	.	.	.	.	4c#/	.	4a\	.
4r	.	.	8f#/L	.	8dd\L	.	4A\	-ve	.	4A/	-ve	.	8f#\L	-ve	.	8dd\L	-ve	.	4r	.	4r	.
.	.	.	8e/J	.	8cc#\J	.	.	.	.	.	.	.	8e\J	.	.	8cc#\J	.	.	.	.	.	.
=15	=15	=15	=15	=15	=15	=15	=15	=15	=15	=15	=15	=15	=15	=15	=15	=15	=15	=15	=15	=15	=15	=15
4E\	6 4	.	8e/L	.	8cc#\L	.	4E\	Vir-	.	4E/	Vir-	.	8e\L	Vir-	.	8cc#\L	Vir-	.	4e/	.	4e/	.
.	5 3	.	8d/J	.	8b\J	.	.	.	.	.	.	.	8d\J	.	.	8b\J	.	.	.	.	.	.
8A\L|	.	.	4c#/	.	4a\	.	4A\	-go	.	4A\	-go	.	4c#\	-go	.	4a\	-go	.	4c#/	.	4a\	.
8E\J|	.	.	.	.	.	.	.	.	.	.	.	.	.	.	.	.	.	.	.	.	.	.
8C#/L|	.	.	4r	.	4r	.	4r	.	.	4r	.	.	4r	.	.	4r	.	.	4r	.	4r	.
8AA/J|	.	.	.	.	.	.	.	.	.	.	.	.	.	.	.	.	.	.	.	.	.	.
=16	=16	=16	=16	=16	=16	=16	=16	=16	=16	=16	=16	=16	=16	=16	=16	=16	=16	=16	=16	=16	=16	=16
4A\	.	.	4a\	.	4cc#\	.	2A\	gra-	.	2E/	gra-	.	2a\	gra-	.	2cc#\	gra-	.	4a\	.	4cc#\	.
4AA/	.	.	4a\	.	4cc#\	.	.	.	.	.	.	.	.	.	.	.	.	.	4a\	.	4cc#\	.
4r	.	.	8dd\L	.	8ff#\L	.	4A\	-ti-	.	4A/	-ti-	.	8dd\L	-ti-	.	8ff#\L	-ti-	.	4r	.	4r	.
.	.	.	8cc#\J	.	8ee\J	.	.	.	.	.	.	.	8cc#\J	.	.	8ee\J	.	.	.	.	.	.
!	!	!	!LO:LB:g=original	!	!	!	!	!	!	!	!	!	!	!	!	!	!	!	!LO:LB:g=original	!	!	!
=17	=17	=17	=17	=17	=17	=17	=17	=17	=17	=17	=17	=17	=17	=17	=17	=17	=17	=17	=17	=17	=17	=17
4GG#X/	6 4	.	8cc#\L	.	8ee\L	.	4G#X\	-o-	.	4E/	-o-	.	8cc#\L	-o-	.	8ee\L	-o-	.	8cc#\L	.	8ee\L	.
.	5 3	.	8b\J	.	8dd\J	.	.	.	.	.	.	.	8b\J	.	.	8dd\J	.	.	8b\J	.	8dd\J	.
8AA/L	.	.	4a\	.	4cc#\	.	4A\	-sa	.	4E/	-sa,	.	4a\	-sa	.	4cc#\	-sa	.	4a\	.	4cc#\	.
8C#/J	.	.	.	.	.	.	.	.	.	.	.	.	.	.	.	.	.	.	.	.	.	.
8E\L	.	.	8r	.	8r	.	4r	.	.	4r	.	.	4r	.	.	4r	.	.	8r	.	8r	.
8A\J	.	.	8cc#\	.	8ee\	.	.	.	.	.	.	.	.	.	.	.	.	.	8cc#\	.	8ee\	.
=18	=18	=18	=18	=18	=18	=18	=18	=18	=18	=18	=18	=18	=18	=18	=18	=18	=18	=18	=18	=18	=18	=18
4B\	9 4	.	8cc#\L	.	8ee\L	.	4B\	ſtel-	.	4F#/	ſtel-	.	8cc#\L	ſtel-	.	8ee\L	ſtel-	.	8cc#\L	.	8ee\L	.
.	8 3	.	8b\J	.	8dd\J	.	.	.	.	.	.	.	8b\J	.	.	8dd\J	.	.	8b\J	.	8dd\J	.
8B\L	.	.	4b\	.	4dd\	.	4B\	-la	.	4F#/	-la	.	4b\	-la	.	4dd\	-la	.	4b\	.	4dd\	.
8E\	7	.	.	.	.	.	.	.	.	.	.	.	.	.	.	.	.	.	.	.	.	.
8G#\	.	.	8r	.	8r	.	4r	.	.	4r	.	.	4r	.	.	4r	.	.	8r	.	8r	.
8E\J	.	.	8b\	.	8dd\	.	.	.	.	.	.	.	.	.	.	.	.	.	8b\	.	8dd\	.
!LO:LB:g=original	!	!	!	!	!LO:LB:g=original	!	!	!	!	!	!	!	!	!	!	!	!	!	!	!	!LO:LB:g=original	!
=19	=19	=19	=19	=19	=19	=19	=19	=19	=19	=19	=19	=19	=19	=19	=19	=19	=19	=19	=19	=19	=19	=19
4A\	9 4	.	8b\L	.	8dd\L	.	4A\	ſo-	.	4E/	ſo-	.	8b\L	ſo-	.	8dd\L	ſo-	.	8b\L	.	8dd\L	.
.	8 3	.	8a\J	.	8cc#\J	.	.	.	.	.	.	.	8a\J	.	.	8cc#\J	.	.	8a\J	.	8cc#\J	.
!LO:TX:t=P:problem=mixed beam	!	!	!	!	!	!	!	!	!	!	!	!	!	!	!	!	!	!	!	!	!	!
8A\L	.	.	4a\	.	4cc#\	.	4A\	-le	.	4E/	-le	.	4a\	-le	.	4cc#\	-le	.	4a\	.	4cc#\	.
8AA/	.	.	.	.	.	.	.	.	.	.	.	.	.	.	.	.	.	.	.	.	.	.
8C#/	6	.	8r	.	8r	.	4r	.	.	4r	.	.	4r	.	.	4r	.	.	4r	.	4r	.
8AA/J	.	.	8e/	.	8cc#\	.	.	.	.	.	.	.	.	.	.	.	.	.	.	.	.	.
!	!	!	!	!	!	!	!LO:LB:g=original	!	!	!LO:LB:g=original	!	!	!LO:LB:g=original	!	!	!LO:LB:g=original	!	!	!	!	!	!
=20	=20	=20	=20	=20	=20	=20	=20	=20	=20	=20	=20	=20	=20	=20	=20	=20	=20	=20	=20	=20	=20	=20
.	.	.	.	.	.	.	.	.	.	.	.	.	8qqe/	.	.	8qqcc#/	.	.	.	.	.	.
4D\	.	.	16e/LL	.	16cc#\LL	.	4D\	cla-	.	4F#/	cla-	.	4d\	cla-	.	4b\	cla-	.	4r	.	4r	.
.	.	.	16d/	.	16b\	.	.	.	.	.	.	.	.	.	.	.	.	.	.	.	.	.
.	.	.	16f#/	.	16dd\	.	.	.	.	.	.	.	.	.	.	.	.	.	.	.	.	.
.	.	.	16d/JJ	.	16b\JJ	.	.	.	.	.	.	.	.	.	.	.	.	.	.	.	.	.
4E\	6 4	.	4c#/	.	4a/	.	4E\	-ri-	.	2E/	-ri-	.	4c#\	.	.	4a\	.	.	4a\	.	4cc#\	.
4EE/	5 3	.	4B/	.	4g#/	.	4EE/	.	.	.	.	.	4B\	-ri-	.	4g#\	-ri-	.	4e/	.	4b\	.
=21	=21	=21	=21	=21	=21	=21	=21	=21	=21	=21	=21	=21	=21	=21	=21	=21	=21	=21	=21	=21	=21	=21
.	.	.	8qqB/	.	8qqg#/	.	.	.	.	.	.	.	8qqB/	.	.	8qqg#/	.	.	.	.	.	.
4AA/	.	.	4.c#/	.	4.a/	.	2AA/	-or	.	2E/	-or	.	2c#\	-or,	.	2a\	-or,	.	2a\	.	2cc#\	.
4C#/	6	.	.	.	.	.	.	.	.	.	.	.	.	.	.	.	.	.	.	.	.	.
.	.	.	8cc#\L	.	8ee\L	.	.	.	.	.	.	.	.	.	.	.	.	.	.	.	.	.
4C#/	.	.	8cc#\	.	8ee\	.	4C#/	cla-	.	4c#\	cla-	.	4a\	cla-	.	4ee\	cla-	.	4a\	.	4cc#\	.
.	.	.	8cc#\J	.	8ee\J	.	.	.	.	.	.	.	.	.	.	.	.	.	.	.	.	.
=22	=22	=22	=22	=22	=22	=22	=22	=22	=22	=22	=22	=22	=22	=22	=22	=22	=22	=22	=22	=22	=22	=22
*	*	*	*	*	*	*	*	*	*	*2\right	*	*	*	*	*	*	*	*	*	*	*	*
4D\	.	.	16dd\LL	.	16ff#\LL	.	2.D\	.	.	2A\	.	.	2f#\	.	.	2dd\	.	.	4a\	.	2.dd\	.
.	.	.	16cc#\	.	16ee\	.	.	.	.	.	.	.	.	.	.	.	.	.	.	.	.	.
.	.	.	16dd\	.	16ff#\	.	.	.	.	.	.	.	.	.	.	.	.	.	.	.	.	.
.	.	.	16ee\JJ	.	16gg#\JJ	.	.	.	.	.	.	.	.	.	.	.	.	.	.	.	.	.
4D\	.	.	8dd\L	.	8ff#\L	.	.	.	.	.	.	.	.	.	.	.	.	.	4a\	.	.	.
.	.	.	8dd\	.	8aa\	.	.	.	.	.	.	.	.	.	.	.	.	.	.	.	.	.
4D\	4 2	.	8dd\	.	8gg#\	.	.	.	.	4E/	.	.	4g#\	.	.	4b\	.	.	4r	.	.	.
.	.	.	8dd\J	.	8bb\J	.	.	.	.	.	.	.	.	.	.	.	.	.	.	.	.	.
!	!	!	!LO:LB:g=original	!	!	!	!	!	!	!	!	!	!	!	!	!	!	!	!	!	!	!
=23	=23	=23	=23	=23	=23	=23	=23	=23	=23	=23	=23	=23	=23	=23	=23	=23	=23	=23	=23	=23	=23	=23
4C#\	6	.	16cc#\LL	.	16aa\LL	.	2.C#\	.	.	2E/	.	.	2.a\	.	.	2cc#\	.	.	4a\	.	2.cc#\	.
.	.	.	16b\	.	16gg#\	.	.	.	.	.	.	.	.	.	.	.	.	.	.	.	.	.
.	.	.	16cc#\	.	16aa\	.	.	.	.	.	.	.	.	.	.	.	.	.	.	.	.	.
.	.	.	16dd\JJ	.	16bb\JJ	.	.	.	.	.	.	.	.	.	.	.	.	.	.	.	.	.
*	*	*	*2\right	*	*	*	*	*	*	*	*	*	*	*	*	*	*	*	*	*	*	*
*	*	*	*tremolo	*	*	*	*	*	*	*	*	*	*	*	*	*	*	*	*	*	*	*
4C#\	.	.	8cc#\L	.	8aa\L	.	.	.	.	.	.	.	.	.	.	.	.	.	4a\	.	.	.
.	.	.	8cc#\	.	8ee\	.	.	.	.	.	.	.	.	.	.	.	.	.	.	.	.	.
4C#\	.	.	8cc#\	.	8ee\	.	.	.	.	4c#\	.	.	.	.	.	4ee\	.	.	4a\	.	.	.
.	.	.	8cc#\J	.	8ee\J	.	.	.	.	.	.	.	.	.	.	.	.	.	.	.	.	.
*	*	*	*Xtremolo	*	*	*	*	*	*	*	*	*	*	*	*	*	*	*	*	*	*	*
!LO:LB:g=original	!	!	!	!	!	!	!	!	!	!	!	!	!	!	!	!	!	!	!	!	!	!
=24	=24	=24	=24	=24	=24	=24	=24	=24	=24	=24	=24	=24	=24	=24	=24	=24	=24	=24	=24	=24	=24	=24
4D\	.	.	16dd\LL	.	16ff#\LL	.	2.D\	.	.	2A\	.	.	2f#\	.	.	2dd\	.	.	4a\	.	2.dd\	.
.	.	.	16cc#\	.	16ee\	.	.	.	.	.	.	.	.	.	.	.	.	.	.	.	.	.
.	.	.	16dd\	.	16ff#\	.	.	.	.	.	.	.	.	.	.	.	.	.	.	.	.	.
.	.	.	16ee\JJ	.	16gg#\JJ	.	.	.	.	.	.	.	.	.	.	.	.	.	.	.	.	.
*	*	*	*tremolo	*	*	*	*	*	*	*	*	*	*	*	*	*	*	*	*	*	*	*
4D\	.	.	8dd\L	.	8ff#\L	.	.	.	.	.	.	.	.	.	.	.	.	.	4a\	.	.	.
.	.	.	8dd\	.	8aa\	.	.	.	.	.	.	.	.	.	.	.	.	.	.	.	.	.
4D\	4 2	.	8dd\	.	8gg#\	.	.	.	.	4E/	.	.	4g#\	.	.	4b\	.	.	4r	.	.	.
.	.	.	8dd\J	.	8bb\J	.	.	.	.	.	.	.	.	.	.	.	.	.	.	.	.	.
*	*	*	*Xtremolo	*	*	*	*	*	*	*	*	*	*	*	*	*	*	*	*	*	*	*
!	!	!	!	!	!LO:LB:g=original	!	!	!	!	!	!	!	!	!	!	!	!	!	!LO:LB:g=original	!	!	!
=25	=25	=25	=25	=25	=25	=25	=25	=25	=25	=25	=25	=25	=25	=25	=25	=25	=25	=25	=25	=25	=25	=25
4C#\	6	.	16cc#\LL	.	16aa\LL	.	2C#\	.	.	2E/	.	.	2a\	.	.	2cc#\	.	.	4a\	.	2.cc#\	.
.	.	.	16b\	.	16gg#\	.	.	.	.	.	.	.	.	.	.	.	.	.	.	.	.	.
.	.	.	16cc#\	.	16aa\	.	.	.	.	.	.	.	.	.	.	.	.	.	.	.	.	.
.	.	.	16dd\JJ	.	16bb\JJ	.	.	.	.	.	.	.	.	.	.	.	.	.	.	.	.	.
4C#\	.	.	8cc#\L	.	8aa\L	.	.	.	.	.	.	.	.	.	.	.	.	.	4a\	.	.	.
.	.	.	8cc#\	.	8ee\	.	.	.	.	.	.	.	.	.	.	.	.	.	.	.	.	.
4C#\	.	.	8cc#\	.	8ee\	.	4A\	.	.	4A\	.	.	4cc#\	.	.	4ee\	.	.	4a\	.	.	.
.	.	.	8cc#\J	.	8ee\J	.	.	.	.	.	.	.	.	.	.	.	.	.	.	.	.	.
=26	=26	=26	=26	=26	=26	=26	=26	=26	=26	=26	=26	=26	=26	=26	=26	=26	=26	=26	=26	=26	=26	=26
4C#\	6	.	4cc#\	.	4ee\	.	4C#\	.	.	4A\	.	.	4cc#\	.	.	4ee\	.	.	4a\	.	4cc#\	.
4C#\	8 6	.	4b\	.	4dd\	.	4D\	.	.	4e\	.	.	4b\	.	.	4dd\	.	.	4r	.	4r	.
4D#X\	7 5	.	4a\	.	4cc#\	.	4D#X\	-ri-	.	4e\	-ri-	.	4a\	.	.	4cc#\	.	.	4r	.	4r	.
=27	=27	=27	=27	=27	=27	=27	=27	=27	=27	=27	=27	=27	=27	=27	=27	=27	=27	=27	=27	=27	=27	=27
!	!	!	!LO:TX:a:B:t=t	!	!	!	!	!	!	!	!	!	!	!	!	!	!	!	!	!	!	!
4E\	6 4	.	4a/	.	4cc#\	.	2E\	-or	.	2e\	-or	.	4a\	-ri-	.	4cc#\	-ri-	.	4a\	.	4cc#\	.
!	!	!	!	!	!LO:TX:t=P:problem=mixed beam	!	!	!	!	!	!	!	!	!	!	!	!	!	!	!	!	!
4EE/	5 3	.	8g#/L|	.	8b\L	.	.	.	.	.	.	.	4g#\	-or	.	4b\	-or,	.	4e/	.	4b\	.
.	.	.	8e/|	.	8e/|	.	.	.	.	.	.	.	.	.	.	.	.	.	.	.	.	.
4r	.	.	8g#/|	.	8g#/|	.	4r	.	.	4r	.	.	4r	.	.	4r	.	.	4r	.	4r	.
.	.	.	8b/J|	.	8b/J|	.	.	.	.	.	.	.	.	.	.	.	.	.	.	.	.	.
=28	=28	=28	=28	=28	=28	=28	=28	=28	=28	=28	=28	=28	=28	=28	=28	=28	=28	=28	=28	=28	=28	=28
4E\|	.	.	8ee\L|	.	8ee\L|	.	0.r	.	.	0.r	.	.	0.r	.	.	1.r	.	.	1.r	.	1.r	.
.	.	.	8dd#X\|	.	8dd#X\|	.	.	.	.	.	.	.	.	.	.	.	.	.	.	.	.	.
4r	.	.	8cc#\|	.	8cc#\|	.	.	.	.	.	.	.	.	.	.	.	.	.	.	.	.	.
.	.	.	8b\|	.	8b\|	.	.	.	.	.	.	.	.	.	.	.	.	.	.	.	.	.
4r	.	.	8a\|	.	8a\|	.	.	.	.	.	.	.	.	.	.	.	.	.	.	.	.	.
.	.	.	8g#\J|	.	8g#\J|	.	.	.	.	.	.	.	.	.	.	.	.	.	.	.	.	.
!LO:LB:g=original	!	!	!LO:LB:g=original	!	!	!	!	!	!	!	!	!	!	!	!	!	!	!	!	!	!	!
=29	=29	=29	=29	=29	=29	=29	=29	=29	=29	=29	=29	=29	=29	=29	=29	=29	=29	=29	=29	=29	=29	=29
4A\|	.	.	8cc#/L|	.	8cc#\L|	.	.	.	.	.	.	.	.	.	.	.	.	.	.	.	.	.
.	.	.	8b/|	.	8b\|	.	.	.	.	.	.	.	.	.	.	.	.	.	.	.	.	.
4r	.	.	8a/|	.	8a\|	.	.	.	.	.	.	.	.	.	.	.	.	.	.	.	.	.
.	.	.	8g#/|	.	8g#\|	.	.	.	.	.	.	.	.	.	.	.	.	.	.	.	.	.
4r	.	.	8f#/|	.	8f#\|	.	.	.	.	.	.	.	.	.	.	.	.	.	.	.	.	.
.	.	.	8e/J|	.	8e\J|	.	.	.	.	.	.	.	.	.	.	.	.	.	.	.	.	.
=30	=30	=30	=30	=30	=30	=30	=30	=30	=30	=30	=30	=30	=30	=30	=30	=30	=30	=30	=30	=30	=30	=30
4r	.	.	8d#X/L	.	8f#/L	.	.	.	.	.	.	.	.	.	.	2.r	.	.	2.r	.	2.r	.
.	.	.	8e/J	.	8g#/J	.	.	.	.	.	.	.	.	.	.	.	.	.	.	.	.	.
.	.	.	8qqg#/	.	8qqb/	.	.	.	.	.	.	.	.	.	.	.	.	.	.	.	.	.
4D#X\	3	.	4f#/	.	4a/	.	.	.	.	.	.	.	.	.	.	.	.	.	.	.	.	.
4E\	5	.	4e/	.	4g#/	.	.	.	.	.	.	.	.	.	.	.	.	.	.	.	.	.
!	!	!	!	!	!	!	!	!	!	!	!	!	!	!	!	!LO:LB:g=original	!	!	!	!	!	!
=31	=31	=31	=31	=31	=31	=31	=31	=31	=31	=31	=31	=31	=31	=31	=31	=31	=31	=31	=31	=31	=31	=31
4B\	6 4	.	4e/	.	4g#t/	.	.	.	.	.	.	.	.	.	.	4r	.	.	4b\	.	4b\	.
!	!	!	!	!	!	!	!	!	!	!	!	!	!	!	!	!LO:TX:a:i:t=Solo	!	!	!	!	!	!
4BB/	5 #	.	4d#X/	.	4f#/	.	.	.	.	.	.	.	.	.	.	4r	.	.	4b\	.	4b\	.
4r	.	.	4r	.	4r	.	.	.	.	.	.	.	.	.	.	8b\	Ma-	.	4r	.	4r	.
.	.	.	.	.	.	.	.	.	.	.	.	.	.	.	.	8b\	-ter	.	.	.	.	.
!	!	!	!	!	!LO:LB:g=original	!	!	!	!	!	!	!	!	!	!	!	!	!	!	!	!LO:LB:g=original	!
=32	=32	=32	=32	=32	=32	=32	=32	=32	=32	=32	=32	=32	=32	=32	=32	=32	=32	=32	=32	=32	=32	=32
!	!	!LO:DY:t=pia	!LO:TX:a:i:t=Solo	!LO:DY:t=po&colon;	!LO:TX:a:i:t=Solo&colon;	!LO:DY:t=pia&colon;	!	!	!	!	!	!	!	!	!	!	!	!	!	!	!	!
4E\	.	p	4r	p	4r	p	0.r	.	.	0.r	.	.	0.r	.	.	8ee\L	Ma-	.	0.r	.	0.r	.
.	.	.	.	.	.	.	.	.	.	.	.	.	.	.	.	16gg#\L	.	.	.	.	.	.
.	.	.	.	.	.	.	.	.	.	.	.	.	.	.	.	16ff#\JJ	.	.	.	.	.	.
4E\	.	.	4g#/	.	4b\	.	.	.	.	.	.	.	.	.	.	8ee\L	.	.	.	.	.	.
.	.	.	.	.	.	.	.	.	.	.	.	.	.	.	.	8dd#X\	.	.	.	.	.	.
4E\	.	.	4g#/	.	4b\	.	.	.	.	.	.	.	.	.	.	8cc#\	-ter	.	.	.	.	.
.	.	.	.	.	.	.	.	.	.	.	.	.	.	.	.	8b\J	.	.	.	.	.	.
=33	=33	=33	=33	=33	=33	=33	=33	=33	=33	=33	=33	=33	=33	=33	=33	=33	=33	=33	=33	=33	=33	=33
4F#\	6\	.	4r	.	4r	.	.	.	.	.	.	.	.	.	.	8b\L	De-	.	.	.	.	.
.	.	.	.	.	.	.	.	.	.	.	.	.	.	.	.	8a\J	.	.	.	.	.	.
4F#\	.	.	4d#X/	.	4a\	.	.	.	.	.	.	.	.	.	.	4a\	-i	.	.	.	.	.
4F#\	.	.	4d#/	.	4a\	.	.	.	.	.	.	.	.	.	.	4r	.	.	.	.	.	.
!LO:LB:g=original	!	!	!	!	!	!	!	!	!	!	!	!	!	!	!	!	!	!	!	!	!	!
=34	=34	=34	=34	=34	=34	=34	=34	=34	=34	=34	=34	=34	=34	=34	=34	=34	=34	=34	=34	=34	=34	=34
4BB/	7	.	4r	.	4r	.	.	.	.	.	.	.	.	.	.	8.ff#\L	glo-	.	.	.	.	.
.	.	.	.	.	.	.	.	.	.	.	.	.	.	.	.	16ee\Jk	.	.	.	.	.	.
4BB/	.	.	4r	.	4r	.	.	.	.	.	.	.	.	.	.	8dd#X\L	.	.	.	.	.	.
.	.	.	.	.	.	.	.	.	.	.	.	.	.	.	.	8cc#\J	.	.	.	.	.	.
4D#X/	6	.	4f#/	.	8b\L	.	.	.	.	.	.	.	.	.	.	8b\L	-ri-	.	.	.	.	.
.	5	.	.	.	8a\J	.	.	.	.	.	.	.	.	.	.	8a\J	.	.	.	.	.	.
=35	=35	=35	=35	=35	=35	=35	=35	=35	=35	=35	=35	=35	=35	=35	=35	=35	=35	=35	=35	=35	=35	=35
4E\	9 4	.	8f#/L	.	8a\L	.	.	.	.	.	.	.	.	.	.	8a\L	-o-	.	.	.	.	.
.	8 3	.	8e/J	.	8g#\J	.	.	.	.	.	.	.	.	.	.	8g#\J	.	.	.	.	.	.
4EE/	.	.	4e/	.	4g#\	.	.	.	.	.	.	.	.	.	.	4g#\	-sa	.	.	.	.	.
4E\	.	.	4r	.	4r	.	.	.	.	.	.	.	.	.	.	4gg#\	glo-	.	.	.	.	.
=36	=36	=36	=36	=36	=36	=36	=36	=36	=36	=36	=36	=36	=36	=36	=36	=36	=36	=36	=36	=36	=36	=36
4B\	#	.	4b\	.	4ff#\	.	0.r	.	.	0.r	.	.	1.r	.	.	8ff#\L	.	.	0.r	.	0.r	.
.	.	.	.	.	.	.	.	.	.	.	.	.	.	.	.	8ee\J	.	.	.	.	.	.
8BB/L	.	.	4b\	.	4ff#\	.	.	.	.	.	.	.	.	.	.	8dd#X\L	.	.	.	.	.	.
8C#/J	.	.	.	.	.	.	.	.	.	.	.	.	.	.	.	8cc#\J	.	.	.	.	.	.
4D#X/	6	.	8b\L	.	4ff#\	.	.	.	.	.	.	.	.	.	.	8b\L	-ri-	.	.	.	.	.
.	5	.	8a\J	.	.	.	.	.	.	.	.	.	.	.	.	8a\J	.	.	.	.	.	.
!	!	!	!LO:LB:g=original	!	!	!	!	!	!	!	!	!	!	!	!	!LO:LB:g=original	!	!	!	!	!	!
=37	=37	=37	=37	=37	=37	=37	=37	=37	=37	=37	=37	=37	=37	=37	=37	=37	=37	=37	=37	=37	=37	=37
4E\	.	.	4g#/	.	4ee\	.	.	.	.	.	.	.	.	.	.	8g#X\L	-o-	.	.	.	.	.
.	.	.	.	.	.	.	.	.	.	.	.	.	.	.	.	8a\J	.	.	.	.	.	.
4E\	.	.	4r	.	4r	.	.	.	.	.	.	.	.	.	.	4b\	-sa	.	.	.	.	.
4E\	.	.	4r	.	4r	.	.	.	.	.	.	.	.	.	.	8ee\L	glo-	.	.	.	.	.
.	.	.	.	.	.	.	.	.	.	.	.	.	.	.	.	8gg#\J	.	.	.	.	.	.
=38	=38	=38	=38	=38	=38	=38	=38	=38	=38	=38	=38	=38	=38	=38	=38	=38	=38	=38	=38	=38	=38	=38
4B\	#	.	4b\	.	4ff#\	.	.	.	.	.	.	.	2.r	.	.	16ff#\LL	.	.	.	.	.	.
.	.	.	.	.	.	.	.	.	.	.	.	.	.	.	.	16gg#\	.	.	.	.	.	.
.	.	.	.	.	.	.	.	.	.	.	.	.	.	.	.	16ff#\	.	.	.	.	.	.
.	.	.	.	.	.	.	.	.	.	.	.	.	.	.	.	16ee\JJ	.	.	.	.	.	.
8BB/L	.	.	4b\	.	4ff#\	.	.	.	.	.	.	.	.	.	.	16dd#\LL	.	.	.	.	.	.
.	.	.	.	.	.	.	.	.	.	.	.	.	.	.	.	16ff#\	.	.	.	.	.	.
8C#/J	.	.	.	.	.	.	.	.	.	.	.	.	.	.	.	16dd#\	.	.	.	.	.	.
.	.	.	.	.	.	.	.	.	.	.	.	.	.	.	.	16cc#\JJ	.	.	.	.	.	.
4D#X/	6	.	8b\L	.	4ff#\	.	.	.	.	.	.	.	.	.	.	16b\LL	-ri-	.	.	.	.	.
.	.	.	.	.	.	.	.	.	.	.	.	.	.	.	.	16cc#\	.	.	.	.	.	.
.	5	.	8a\J	.	.	.	.	.	.	.	.	.	.	.	.	16b\	.	.	.	.	.	.
.	.	.	.	.	.	.	.	.	.	.	.	.	.	.	.	16a\JJ	.	.	.	.	.	.
!LO:LB:g=original	!	!	!	!	!	!	!	!	!	!	!	!	!	!	!	!	!	!	!	!	!	!
=39	=39	=39	=39	=39	=39	=39	=39	=39	=39	=39	=39	=39	=39	=39	=39	=39	=39	=39	=39	=39	=39	=39
!	!	!	!	!	!	!	!	!	!	!	!	!	!LO:TX:a:i:t=Solo:rj	!	!	!	!	!	!	!	!	!
4E\	.	.	8g#/L	.	8ee\L	.	.	.	.	.	.	.	4r	.	.	16g#\LL	-o-	.	.	.	.	.
.	.	.	.	.	.	.	.	.	.	.	.	.	.	.	.	16b\	.	.	.	.	.	.
.	.	.	8g#/	.	8b\	.	.	.	.	.	.	.	.	.	.	16a\	.	.	.	.	.	.
.	.	.	.	.	.	.	.	.	.	.	.	.	.	.	.	16cc#\JJ	.	.	.	.	.	.
4E\	.	.	8g#/	.	8b\	.	.	.	.	.	.	.	4r	.	.	4b\	-sa	.	.	.	.	.
.	.	.	8g#/	.	8b\	.	.	.	.	.	.	.	.	.	.	.	.	.	.	.	.	.
4E\	.	.	8g#/	.	8b\	.	.	.	.	.	.	.	4g#\	glo-	.	4b\	glo-	.	.	.	.	.
.	.	.	8g#/J	.	8b\J	.	.	.	.	.	.	.	.	.	.	.	.	.	.	.	.	.
!	!	!	!	!	!LO:LB:g=original	!	!	!	!	!	!	!	!	!	!	!	!	!	!	!	!	!
=40	=40	=40	=40	=40	=40	=40	=40	=40	=40	=40	=40	=40	=40	=40	=40	=40	=40	=40	=40	=40	=40	=40
4A\	.	.	8a/L	.	8cc#\L	.	0.r	.	.	0.r	.	.	16a\LL	.	.	16cc#\LL	.	.	0.r	.	0.r	.
.	.	.	.	.	.	.	.	.	.	.	.	.	16g#\	.	.	16b\	.	.	.	.	.	.
.	.	.	8a/	.	8cc#\	.	.	.	.	.	.	.	16a\	.	.	16cc#\	.	.	.	.	.	.
.	.	.	.	.	.	.	.	.	.	.	.	.	16b\JJ	.	.	16ddn\JJ	.	.	.	.	.	.
4A\	.	.	8a/	.	8cc#\	.	.	.	.	.	.	.	8a\	.	.	8cc#\	.	.	.	.	.	.
.	.	.	8a/	.	8cc#\	.	.	.	.	.	.	.	8r	.	.	8r	.	.	.	.	.	.
4A\	4#r 2	.	8f#/	.	8dd#X\	.	.	.	.	.	.	.	4f#\	.	.	4dd#X\	.	.	.	.	.	.
.	.	.	8f#/J	.	8dd#\J	.	.	.	.	.	.	.	.	.	.	.	.	.	.	.	.	.
!	!	!	!	!	!	!	!	!	!	!	!	!	!LO:LB:g=original	!	!	!	!	!	!	!	!	!
=41	=41	=41	=41	=41	=41	=41	=41	=41	=41	=41	=41	=41	=41	=41	=41	=41	=41	=41	=41	=41	=41	=41
4G#\	.	.	8g#/L	.	8ee\L	.	.	.	.	.	.	.	16g#\LL	.	.	16ee\LL	.	.	.	.	.	.
.	.	.	.	.	.	.	.	.	.	.	.	.	16f#\	.	.	16dd#X\	.	.	.	.	.	.
.	.	.	8g#/	.	8ee\	.	.	.	.	.	.	.	16g#\	.	.	16ee\	.	.	.	.	.	.
.	.	.	.	.	.	.	.	.	.	.	.	.	16a\JJ	.	.	16ff#\JJ	.	.	.	.	.	.
4G#\	.	.	8g#/	.	8ee\	.	.	.	.	.	.	.	8g#\	.	.	8ee\	.	.	.	.	.	.
.	.	.	8g#/	.	8ee\	.	.	.	.	.	.	.	8r	.	.	8r	.	.	.	.	.	.
4E\	.	.	8g#/	.	8b\	.	.	.	.	.	.	.	4g#\	.	.	4b\	.	.	.	.	.	.
.	.	.	8g#/J	.	8b\J	.	.	.	.	.	.	.	.	.	.	.	.	.	.	.	.	.
!	!	!	!	!	!	!	!	!	!	!	!	!	!	!	!	!LO:LB:g=original	!	!	!	!	!	!
=42	=42	=42	=42	=42	=42	=42	=42	=42	=42	=42	=42	=42	=42	=42	=42	=42	=42	=42	=42	=42	=42	=42
4A\	.	.	8a/L	.	8cc#\L	.	.	.	.	.	.	.	16a\LL	.	.	16cc#\LL	.	.	.	.	.	.
.	.	.	.	.	.	.	.	.	.	.	.	.	16g#\	.	.	16b\	.	.	.	.	.	.
.	.	.	8a/	.	8cc#\	.	.	.	.	.	.	.	16a\	.	.	16cc#\	.	.	.	.	.	.
.	.	.	.	.	.	.	.	.	.	.	.	.	16b\JJ	.	.	16ddn\JJ	.	.	.	.	.	.
4A\	.	.	8a/	.	8cc#\	.	.	.	.	.	.	.	8a\	.	.	8cc#\	.	.	.	.	.	.
.	.	.	8a/	.	8cc#\	.	.	.	.	.	.	.	8r	.	.	8r	.	.	.	.	.	.
4A\	.	.	8f#/	.	8dd#X\	.	.	.	.	.	.	.	4f#\	.	.	4dd#X\	.	.	.	.	.	.
.	.	.	8f#/J	.	8dd#\J	.	.	.	.	.	.	.	.	.	.	.	.	.	.	.	.	.
!	!	!	!LO:LB:g=original	!	!	!	!	!	!	!	!	!	!	!	!	!	!	!	!	!	!	!
=43	=43	=43	=43	=43	=43	=43	=43	=43	=43	=43	=43	=43	=43	=43	=43	=43	=43	=43	=43	=43	=43	=43
4G#\	6	.	4g#/	.	4ee\	.	.	.	.	.	.	.	16g#\LL	.	.	16ee\LL	.	.	.	.	.	.
.	.	.	.	.	.	.	.	.	.	.	.	.	16f#\	.	.	16dd#X\	.	.	.	.	.	.
.	.	.	.	.	.	.	.	.	.	.	.	.	16a\	.	.	16ee\	.	.	.	.	.	.
.	.	.	.	.	.	.	.	.	.	.	.	.	16b\JJ	.	.	16ff#\JJ	.	.	.	.	.	.
4G#\	.	.	4r	.	4r	.	.	.	.	.	.	.	8g#\L	.	.	8ee\L	.	.	.	.	.	.
.	.	.	.	.	.	.	.	.	.	.	.	.	8b\J	.	.	8gg#\J	.	.	.	.	.	.
8A\L	.	.	8a/L	.	8ff#\L	.	.	.	.	.	.	.	8a\L	-ri-	.	8ff#\L	-ri-	.	.	.	.	.
8A#X\J	.	.	8g#/J	.	8ee\J	.	.	.	.	.	.	.	8g#\J	.	.	8ee\J	.	.	.	.	.	.
!LO:LB:g=original	!	!	!	!	!	!	!	!	!	!	!	!	!	!	!	!	!	!	!	!	!	!
=44	=44	=44	=44	=44	=44	=44	=44	=44	=44	=44	=44	=44	=44	=44	=44	=44	=44	=44	=44	=44	=44	=44
4B\	6 4	.	4g#/	.	4ee\	.	2.r	.	.	2.r	.	.	4g#\	-o-	.	4ee\	-o-	.	2.r	.	2.r	.
!	!	!	!LO:TX:t=P:problem=mixed beam	!	!	!	!	!	!	!	!	!	!	!	!	!	!	!	!	!	!	!
4BB/	5 #	.	8f#/L	f	8dd#X\L	.	.	.	.	.	.	.	4f#\	-sa	.	4dd#X\	-sa	.	.	.	.	.
.	.	.	16gg#\L	.	16bb\L	.	.	.	.	.	.	.	.	.	.	.	.	.	.	.	.	.
.	.	.	16aa\JJ	.	16ccc#\JJ	.	.	.	.	.	.	.	.	.	.	.	.	.	.	.	.	.
!	!	!	!	!	!	!LO:DY:t=forte:rj	!	!	!	!	!	!	!	!	!	!	!	!	!	!	!	!
4r	.	.	16gg#\LL	.	16bb\LL	f	.	.	.	.	.	.	4r	.	.	4r	.	.	.	.	.	.
.	.	.	16ff#\	.	16aa\	.	.	.	.	.	.	.	.	.	.	.	.	.	.	.	.	.
.	.	.	16ee\	.	16gg#\	.	.	.	.	.	.	.	.	.	.	.	.	.	.	.	.	.
.	.	.	16dd#X\JJ	.	16ff#\JJ	.	.	.	.	.	.	.	.	.	.	.	.	.	.	.	.	.
!	!	!	!	!	!	!	!LO:LB:g=original	!	!	!LO:LB:g=original	!	!	!	!	!	!	!	!	!	!	!	!
=45	=45	=45	=45	=45	=45	=45	=45	=45	=45	=45	=45	=45	=45	=45	=45	=45	=45	=45	=45	=45	=45	=45
*	*	*	*^	*	*	*	*	*	*	*	*	*	*	*	*	*	*	*	*	*	*	*
*2\right	*	*	*	*	*	*	*	*	*	*	*	*	*	*	*	*	*	*	*	*	*	*	*
*tremolo	*	*	*	*	*	*	*	*	*	*	*	*	*	*	*	*	*	*	*	*	*	*	*
!LO:TX:a:i:t=Tutti	!	!	!	!	!	!	!	!	!	!	!	!	!	!LO:TX:a:i:t=Tutti	!	!	!LO:TX:a:i:t=Tutti	!	!	!LO:TX:a:i:t=Tutti	!LO:DY:rj	!LO:TX:a:i:t=Tutti	!
8E\L	.	.	8ee\L	8ryy	.	(8gg#\L	.	4E\	Fa-	.	4B\	Fa-	.	4e\	fa-	.	4g#\	fa-	.	4b\	f	4b\	f
8E\	.	.	8g#\	8b/L	.	8ee\J)	.	.	.	.	.	.	.	.	.	.	.	.	.	.	.	.	.
8E\	.	.	8g#\	8b/	.	4b\|	.	2E\	-vô	.	2B\	-vô	.	2e\	-vô	.	2g#\	-vô	.	4b\	.	4b\	.
8E\	.	.	8g#\	8b/	.	.	.	.	.	.	.	.	.	.	.	.	.	.	.	.	.	.	.
8E\	.	.	8g#\	8b/	.	8r	.	.	.	.	.	.	.	.	.	.	.	.	.	4b\	.	4b\	.
8E\J	.	.	8g#\J	8b/J	.	(8gg#\	.	.	.	.	.	.	.	.	.	.	.	.	.	.	.	.	.
!	!	!	!	!	!	!LO:LB:g=original	!	!	!	!	!	!	!	!	!	!	!	!	!	!	!	!	!
=46	=46	=46	=46	=46	=46	=46	=46	=46	=46	=46	=46	=46	=46	=46	=46	=46	=46	=46	=46	=46	=46	=46	=46
.	.	.	.	.	.	.	.	.	.	.	.	.	.	8qqg#/	.	.	8qqb/	.	.	.	.	.	.
*	*	*	*tremolo	*	*	*	*	*	*	*	*	*	*	*	*	*	*	*	*	*	*	*	*
8D#X\L	6_ 5_	.	8b/L	8a\L	.	8aa\L)	.	4D#X\	Mel-	.	4B\	Mel-	.	4f#\	mel-	.	4a\	mel-	.	2.b\	.	2.b\	.
8D#\	.	.	8b/	8a\	.	8ff#\|	.	.	.	.	.	.	.	.	.	.	.	.	.	.	.	.	.
8D#\	.	.	8b/	8a\	.	(8ee\	.	2D#\	-lis	.	2B\	-lis	.	2f#\	-lis	.	2a\	-lis	.	.	.	.	.
8D#\	.	.	8b/	8a\	.	8dd#X\)	.	.	.	.	.	.	.	.	.	.	.	.	.	.	.	.	.
8D#\	.	.	8b/	8a\	.	(8cc#\	.	.	.	.	.	.	.	.	.	.	.	.	.	.	.	.	.
8D#\J	.	.	8b/J	8a\J	.	8b\J)	.	.	.	.	.	.	.	.	.	.	.	.	.	.	.	.	.
!	!	!	!	!	!	!	!	!	!	!	!	!	!	!LO:LB:g=original	!	!	!	!	!	!	!	!	!
=47	=47	=47	=47	=47	=47	=47	=47	=47	=47	=47	=47	=47	=47	=47	=47	=47	=47	=47	=47	=47	=47	=47	=47
8E\L	x	.	8b/L	8g#\L	.	(8gg#\L	.	4E\	Fa-	.	4B\	fa-	.	4e\	fa-	.	4g#\	fa-	.	4b\	.	4b\	.
8E\	.	.	8b/	8g#\	.	8ee\J)	.	.	.	.	.	.	.	.	.	.	.	.	.	.	.	.	.
8E\	.	.	8b/	8g#\	.	4b\|	.	2E\	-vô	.	2B\	-vô	.	2e\	-vô	.	2g#\	-vô	.	4b\	.	4b\	.
8E\	.	.	8b/	8g#\	.	.	.	.	.	.	.	.	.	.	.	.	.	.	.	.	.	.	.
8E\	.	.	8b/	8g#\	.	8r	.	.	.	.	.	.	.	.	.	.	.	.	.	4b\	.	4b\	.
8E\J	.	.	8b/J	8g#\J	.	(8gg#\	.	.	.	.	.	.	.	.	.	.	.	.	.	.	.	.	.
!	!	!	!	!	!	!	!	!	!	!	!	!	!	!	!	!	!	!	!	!LO:LB:g=original	!	!	!
=48	=48	=48	=48	=48	=48	=48	=48	=48	=48	=48	=48	=48	=48	=48	=48	=48	=48	=48	=48	=48	=48	=48	=48
.	.	.	.	.	.	.	.	.	.	.	.	.	.	8qqg#/	.	.	8qqb/	.	.	.	.	.	.
8D#X\L	6 5	.	8b/L	8a\L	.	8aa\L)	.	4D#X\	Mel-	.	4B\	Mel-	.	4f#\	mel-	.	4a\	mel-	.	2.b\	.	2.b\	.
8D#\	.	.	8b/	8a\	.	8ff#\|	.	.	.	.	.	.	.	.	.	.	.	.	.	.	.	.	.
8D#\	.	.	8b/	8a\	.	(8ee\	.	2D#\	-lis	.	2B\	-lis	.	2f#\	-lis	.	2a\	-lis	.	.	.	.	.
8D#\	.	.	8b/	8a\	.	8dd#X\)	.	.	.	.	.	.	.	.	.	.	.	.	.	.	.	.	.
8D#\	.	.	8b/	8a\	.	(8cc#\	.	.	.	.	.	.	.	.	.	.	.	.	.	.	.	.	.
8D#\J	.	.	8b/J	8a\J	.	8b\J)	.	.	.	.	.	.	.	.	.	.	.	.	.	.	.	.	.
*Xtremolo	*	*	*	*Xtremolo	*	*	*	*	*	*	*	*	*	*	*	*	*	*	*	*	*	*	*
*	*	*	*v	*v	*	*	*	*	*	*	*	*	*	*	*	*	*	*	*	*	*	*	*
!	!	!	!	!	!	!	!	!	!	!	!	!	!	!	!	!LO:LB:g=original	!	!	!	!	!	!
=49	=49	=49	=49	=49	=49	=49	=49	=49	=49	=49	=49	=49	=49	=49	=49	=49	=49	=49	=49	=49	=49	=49
!	!	!	!	!	!	!	!	!	!LO:DY:a	!	!	!	!	!	!	!	!	!	!	!	!	!
4E\	7	.	8g#/L	.	8ee\L	.	4E\	dul-	f	1.r	.	.	4e\	dul-	.	4g#\	dul-	.	4b\	.	4b\	.
.	.	.	8b/J	.	8gg#\	.	.	.	.	.	.	.	.	.	.	.	.	.	.	.	.	.
4D#X\	5 3	.	8dd#X\L	.	8ff#\	.	4D#X\	.	.	.	.	.	4f#\	.	.	4a\	.	.	4r	.	4r	.
.	.	.	8ff#\	.	8aa\	.	.	.	.	.	.	.	.	.	.	.	.	.	.	.	.	.
4E\	.	.	8ee\	.	8gg#\	.	4E\	.	.	.	.	.	4g#\	.	.	4b\	.	.	4r	.	4r	.
.	.	.	8gg#\J	.	8bb\J	.	.	.	.	.	.	.	.	.	.	.	.	.	.	.	.	.
!LO:LB:g=original	!	!	!LO:LB:g=original	!	!	!	!	!	!	!	!	!	!	!	!	!	!	!	!	!	!	!
=50	=50	=50	=50	=50	=50	=50	=50	=50	=50	=50	=50	=50	=50	=50	=50	=50	=50	=50	=50	=50	=50	=50
4C#\	.	.	4gg#\	.	4bb\	.	4C#\	.	.	.	.	.	4g#\	.	.	4b\	.	.	2.r	.	2.r	.
4D#X\	6 4	.	4ff#\	.	4aa\	.	4D#X\	.	.	.	.	.	4f#\	.	.	4a\	.	.	.	.	.	.
4E\	5 #	.	8ee\L	.	4gg#\	.	4E\	.	.	.	.	.	4e\	.	.	4g#\	.	.	.	.	.	.
.	.	.	8gg#\J	.	.	.	.	.	.	.	.	.	.	.	.	.	.	.	.	.	.	.
=51	=51	=51	=51	=51	=51	=51	=51	=51	=51	=51	=51	=51	=51	=51	=51	=51	=51	=51	=51	=51	=51	=51
.	.	.	.	.	8qqbb/	.	.	.	.	.	.	.	.	.	.	.	.	.	.	.	.	.
4A\	.	.	8gg#\L	.	4aa\	.	4A\	.	.	4c#\	dul-	.	8g#\L	.	.	8b\L	.	.	4r	.	4r	.
.	.	.	8ff#\J	.	.	.	.	.	.	.	.	.	8f#\J	.	.	8a\J	.	.	.	.	.	.
!	!	!	!	!	!	!	!	!	!	!	!	!	!	!	!	!	!	!	!	!	!LO:TX:a:i:t=Solo	!
4B\	.	.	4ee\	.	4gg#\	.	4B\	.	.	4B\	.	.	4e\	.	.	4g#\	.	.	4b\	.	4b\	p
4BB/	.	.	4dd#X\	.	4ff#\	.	4BB/	-ci-	.	4B\	-ci-	.	4d#X\	-ci-	.	4f#\	-ci-	.	4b\	.	4b\	.
!	!	!	!	!	!	!	!LO:LB:g=original	!	!	!	!	!	!	!	!	!	!	!	!	!	!	!
=52	=52	=52	=52	=52	=52	=52	=52	=52	=52	=52	=52	=52	=52	=52	=52	=52	=52	=52	=52	=52	=52	=52
*	*	*	*^	*	*	*	*	*	*	*	*	*	*	*	*	*	*	*	*	*	*	*
*tremolo	*	*	*	*	*	*	*	*	*	*	*	*	*	*	*	*	*	*	*	*	*	*	*
!	!	!LO:DY:a:t=piano	!	!	!LO:DY:t=po&colon;	!	!LO:DY:t=pia&colon;	!	!	!	!	!	!LO:DY:a	!	!	!	!	!	!LO:DY:a	!	!	!	!
8E\L	.	p	8ee\L	8ryy	p	8gg#\L	p	4E\	-or	.	4B\	-or,	p	4e\	-or,	.	4g#\	-or,	p	4b\	p	4b\	.
8E\	.	.	8g#\	8b/L	.	8ee\J	.	.	.	.	.	.	.	.	.	.	.	.	.	.	.	.	.
!	!	!	!	!	!	!	!	!	!	!LO:DY:a	!	!	!	!	!	!LO:DY:a	!	!	!	!	!	!	!
8E\	.	.	8g#\	8b/	.	4b\	.	4E\	fa-	p	4B\	Fa-	.	4e\	Fa-	p	4g#\	fa-	.	4b\	.	4b\	.
8E\	.	.	8g#\	8b/	.	.	.	.	.	.	.	.	.	.	.	.	.	.	.	.	.	.	.
8E\	.	.	8g#\	8b/	.	8r	.	4E\	-vô	.	4B\	-vô	.	4e\	-vô	.	4g#\	-vô	.	4b\	.	4b\	.
8E\J	.	.	8g#\J	8b/J	.	(8gg#\	.	.	.	.	.	.	.	.	.	.	.	.	.	.	.	.	.
!	!	!	!	!	!	!LO:LB:g=original	!	!	!	!	!	!	!	!	!	!	!	!	!	!	!	!	!
=53	=53	=53	=53	=53	=53	=53	=53	=53	=53	=53	=53	=53	=53	=53	=53	=53	=53	=53	=53	=53	=53	=53	=53
.	.	.	.	.	.	.	.	.	.	.	.	.	.	8qqg#/	.	.	8qqb/	.	.	.	.	.	.
*	*	*	*tremolo	*	*	*	*	*	*	*	*	*	*	*	*	*	*	*	*	*	*	*	*
8D#X\L	6_ 5_	.	8b/L	8a\L	.	8aa\L)	.	4D#\	mel-	.	4B\	mel-	.	4f#\	mel-	.	4a\	mel-	.	2.b\	.	2.b\	.
8D#\	.	.	8b/	8a\	.	8ff#\|	.	.	.	.	.	.	.	.	.	.	.	.	.	.	.	.	.
8D#\	.	.	8b/	8a\	.	(8ee\	.	2D#\	-lis	.	2B\	-lis	.	2f#\	-lis	.	2a\	-lis	.	.	.	.	.
8D#\	.	.	8b/	8a\	.	8dd#X\)	.	.	.	.	.	.	.	.	.	.	.	.	.	.	.	.	.
8D#\	.	.	8b/	8a\	.	(8cc#\	.	.	.	.	.	.	.	.	.	.	.	.	.	.	.	.	.
8D#\J	.	.	8b/J	8a\J	.	8b\J)	.	.	.	.	.	.	.	.	.	.	.	.	.	.	.	.	.
!	!	!	!	!	!	!	!	!	!	!	!LO:LB:g=original	!	!	!	!	!	!	!	!	!	!	!LO:LB:g=original	!
=54	=54	=54	=54	=54	=54	=54	=54	=54	=54	=54	=54	=54	=54	=54	=54	=54	=54	=54	=54	=54	=54	=54	=54
8E\L	x	.	8b/L	8g#\L	.	(8gg#\L	.	4E\	fa-	.	4B\	fa-	.	4e\	Fa-	.	4g#\	fa-	.	4b\	.	4b\	.
8E\	.	.	8b/	8g#\	.	8ee\J)	.	.	.	.	.	.	.	.	.	.	.	.	.	.	.	.	.
8E\	.	.	8b/	8g#\	.	4b\|	.	2E\	-vo	.	2B\	-vô	.	2e\	-vô	.	2g#\	-vô	.	4b\	.	4b\	.
8E\	.	.	8b/	8g#\	.	.	.	.	.	.	.	.	.	.	.	.	.	.	.	.	.	.	.
8E\	.	.	8b/	8g#\	.	8r	.	.	.	.	.	.	.	.	.	.	.	.	.	4b\	.	4b\	.
8E\J	.	.	8b/J	8g#\J	.	(8gg#\	.	.	.	.	.	.	.	.	.	.	.	.	.	.	.	.	.
!	!	!	!	!	!	!	!	!	!	!	!	!	!	!LO:LB:g=original	!	!	!	!	!	!	!	!	!
=55	=55	=55	=55	=55	=55	=55	=55	=55	=55	=55	=55	=55	=55	=55	=55	=55	=55	=55	=55	=55	=55	=55	=55
.	.	.	.	.	.	.	.	.	.	.	.	.	.	8qqg#/	.	.	8qqb/	.	.	.	.	.	.
8D#X\L	6 5	.	8b/L	8a\L	.	8aa\L)	.	4D#\	mel-	.	4B\	mel-	.	4f#\	mel-	.	4a\	mel-	.	2.b\	.	2.b\	.
8D#\	.	.	8b/	8a\	.	8ff#\|	.	.	.	.	.	.	.	.	.	.	.	.	.	.	.	.	.
8D#\	.	.	8b/	8a\	.	(8ee\	.	2D#\	-lis	.	2B\	-lis	.	2f#\	-lis	.	2a\	-lis	.	.	.	.	.
8D#\	.	.	8b/	8a\	.	8dd#X\)	.	.	.	.	.	.	.	.	.	.	.	.	.	.	.	.	.
8D#\	.	.	8b/	8a\	.	(8cc#\	.	.	.	.	.	.	.	.	.	.	.	.	.	.	.	.	.
8D#\J	.	.	8b/J	8a\J	.	8b\J)	.	.	.	.	.	.	.	.	.	.	.	.	.	.	.	.	.
*Xtremolo	*	*	*	*Xtremolo	*	*	*	*	*	*	*	*	*	*	*	*	*	*	*	*	*	*	*
*	*	*	*v	*v	*	*	*	*	*	*	*	*	*	*	*	*	*	*	*	*	*	*	*
!LO:LB:g=original	!	!	!	!	!	!	!	!	!	!	!	!	!	!	!	!	!	!	!	!	!	!
=56	=56	=56	=56	=56	=56	=56	=56	=56	=56	=56	=56	=56	=56	=56	=56	=56	=56	=56	=56	=56	=56	=56
!	!	!LO:DY:t=for	!	!LO:DY:t=forte.	!	!LO:DY:t=forte	!	!	!LO:DY:a:t=forte	!	!	!	!	!	!LO:DY:a	!	!	!LO:DY:a:t=forte	!LO:TX:a:i:t=Tutti	!	!LO:TX:a:i:t=Tutti	!LO:DY:t=for
4E\	.	f	8g#\L	f	8ee\L	f	4E\	dul-	f	1.r	.	.	4e\	dul-	f	4g#\	dul-	f	4b\	f	4b\	f
.	.	.	8b\	.	8gg#\	.	.	.	.	.	.	.	.	.	.	.	.	.	.	.	.	.
4D#X\	.	f	8dd#X\	.	8ff#\	.	4D#\	.	.	.	.	.	4f#\	.	.	4a\	.	.	4r	.	4r	.
.	.	.	8ff#\	.	8aa\	.	.	.	.	.	.	.	.	.	.	.	.	.	.	.	.	.
4E\	.	.	8ee\	.	8gg#\	.	4E\	.	.	.	.	.	4g#\	.	.	4b\	.	.	4r	.	4r	.
.	.	.	8gg#\J	.	8bb\J	.	.	.	.	.	.	.	.	.	.	.	.	.	.	.	.	.
!	!	!	!	!	!	!	!	!	!	!	!	!	!	!	!	!	!	!	!LO:LB:g=original	!	!	!
=57	=57	=57	=57	=57	=57	=57	=57	=57	=57	=57	=57	=57	=57	=57	=57	=57	=57	=57	=57	=57	=57	=57
4C#\	7	.	4gg#\	.	4bb\	.	4C#\	.	.	.	.	.	4g#\	.	.	4b\	.	.	2.r	.	2.r	.
4D#X\	5 3	.	4ff#\	.	4aa\	.	4D#\	.	.	.	.	.	4f#\	.	.	4a\	.	.	.	.	.	.
4E\	.	.	4ee\	.	4gg#\	.	4E\	.	.	.	.	.	4e\	.	.	4g#\	.	.	.	.	.	.
!	!	!	!LO:LB:g=original	!	!	!	!	!	!	!	!	!	!	!	!	!LO:LB:g=original	!	!	!	!	!	!
=58	=58	=58	=58	=58	=58	=58	=58	=58	=58	=58	=58	=58	=58	=58	=58	=58	=58	=58	=58	=58	=58	=58
!	!	!	!	!	!	!	!	!	!	!	!	!LO:DY:a	!	!	!	!	!	!	!	!	!	!
4A\	.	.	8gg#\L	.	8bb\L	.	4A\	.	.	4c#\	dul-	f	8g#\L	.	.	8b\L	.	.	4r	.	4r	.
.	.	.	8ff#\J	.	8aa\J	.	.	.	.	.	.	.	8f#\J	.	.	8a\J	.	.	.	.	.	.
4B\	6 4	.	4ee\	.	4gg#\	.	4B\	.	.	4B\	.	.	4e\	.	.	4g#\	.	.	4b\	.	4b\	.
4BB/	5 #	.	4dd#X\	.	4ff#\	.	4BB/	-ci-	.	4B\	-ci-	.	4d#X\	-ci-	.	4f#\	-ci-	.	4b\	.	4b\	.
=59	=59	=59	=59	=59	=59	=59	=59	=59	=59	=59	=59	=59	=59	=59	=59	=59	=59	=59	=59	=59	=59	=59
!	!	!	!	!	!LO:TX:t=P:problem=mixed beam	!	!	!	!	!	!	!	!	!	!	!	!	!	!	!	!	!
!	!	!LO:DY:t=pia	!LO:TX:t=P:problem=mixed beam	!	!	!	!	!	!	!	!	!	!	!	!	!	!	!	!	!	!	!
4E\	.	p	8ee\L|>	.	8ee\L|>	.	4E\	-or	.	4B\	-or	.	4e\	-or	.	4e\	-or	.	4b\	.	4b\	.
.	.	.	8e/|<	.	8e/|>	.	.	.	.	.	.	.	.	.	.	.	.	.	.	.	.	.
4r	.	.	8g#/|<	.	8g#/|>	.	4r	.	.	4r	.	.	4r	.	.	4r	.	.	4r	.	4r	.
.	.	.	8b/|<	.	8b/J|>	.	.	.	.	.	.	.	.	.	.	.	.	.	.	.	.	.
4r	.	.	8ee/|<	.	8ee\L|	.	4r	.	.	4r	.	.	4r	.	.	4r	.	.	4r	.	4r	.
.	.	.	8gg#/J|<	.	8gg#\J|	.	.	.	.	.	.	.	.	.	.	.	.	.	.	.	.	.
!	!	!	!	!	!LO:LB:g=original	!	!LO:LB:g=original	!	!	!	!	!	!	!	!	!	!	!	!	!	!	!
=60	=60	=60	=60	=60	=60	=60	=60	=60	=60	=60	=60	=60	=60	=60	=60	=60	=60	=60	=60	=60	=60	=60
4r	.	.	8ff#\L	.	(8ff#\L	.	0.r	.	.	0.r	.	.	0.r	.	.	0.r	.	.	0.r	.	0.r	.
.	.	.	8dd#X\J	.	8dd#X\J)	.	.	.	.	.	.	.	.	.	.	.	.	.	.	.	.	.
.	.	.	8qqcc#/	.	8qqcc#/	.	.	.	.	.	.	.	.	.	.	.	.	.	.	.	.	.
4r	.	.	4b\	.	4b\	.	.	.	.	.	.	.	.	.	.	.	.	.	.	.	.	.
4F#\	6\ 4	.	4b\	.	4b\	.	.	.	.	.	.	.	.	.	.	.	.	.	.	.	.	.
!LO:LB:g=original	!	!	!	!	!	!	!	!	!	!	!	!	!	!	!	!	!	!	!	!	!	!
=61	=61	=61	=61	=61	=61	=61	=61	=61	=61	=61	=61	=61	=61	=61	=61	=61	=61	=61	=61	=61	=61	=61
!	!	!	!LO:TX:t=P:problem=mixed beam	!	!LO:TX:t=P:problem=mixed beam	!	!	!	!	!	!	!	!	!	!	!	!	!	!	!	!	!
4E\	6	.	8cc#\L|<	.	8cc#\L|>	.	.	.	.	.	.	.	.	.	.	.	.	.	.	.	.	.
.	.	.	8c#/|<	.	8c#/|>	.	.	.	.	.	.	.	.	.	.	.	.	.	.	.	.	.
4r	.	.	8e/|<	.	8e/|>	.	.	.	.	.	.	.	.	.	.	.	.	.	.	.	.	.
.	.	.	8g#/|<	.	8g#/J|>	.	.	.	.	.	.	.	.	.	.	.	.	.	.	.	.	.
4r	.	.	8cc#/|<	.	8cc#\L|	.	.	.	.	.	.	.	.	.	.	.	.	.	.	.	.	.
.	.	.	8ee/J|<	.	8ee\J|	.	.	.	.	.	.	.	.	.	.	.	.	.	.	.	.	.
=62	=62	=62	=62	=62	=62	=62	=62	=62	=62	=62	=62	=62	=62	=62	=62	=62	=62	=62	=62	=62	=62	=62
4r	.	.	8dd#X\L	.	(8dd#\L	.	.	.	.	.	.	.	.	.	.	.	.	.	.	.	.	.
.	.	.	8b\J	.	8b\J)	.	.	.	.	.	.	.	.	.	.	.	.	.	.	.	.	.
.	.	.	8qqa/	.	8qqa/	.	.	.	.	.	.	.	.	.	.	.	.	.	.	.	.	.
4r	.	.	4g#/	.	4g#/	.	.	.	.	.	.	.	.	.	.	.	.	.	.	.	.	.
4Dn\	4 2	.	4g#/	.	4g#/	.	.	.	.	.	.	.	.	.	.	.	.	.	.	.	.	.
=63	=63	=63	=63	=63	=63	=63	=63	=63	=63	=63	=63	=63	=63	=63	=63	=63	=63	=63	=63	=63	=63	=63
4C#\	6	.	8a/L|	.	8a/L|>	.	.	.	.	.	.	.	.	.	.	.	.	.	.	.	.	.
.	.	.	8A/|	.	8A/|>	.	.	.	.	.	.	.	.	.	.	.	.	.	.	.	.	.
4r	.	.	8c#/|	.	8c#/|>	.	.	.	.	.	.	.	.	.	.	.	.	.	.	.	.	.
.	.	.	8e/|	.	8e/|>	.	.	.	.	.	.	.	.	.	.	.	.	.	.	.	.	.
4r	.	.	8a/|	.	8a/|>	.	.	.	.	.	.	.	.	.	.	.	.	.	.	.	.	.
.	.	.	8cc#/J|	.	8cc#/J|>	.	.	.	.	.	.	.	.	.	.	.	.	.	.	.	.	.
=64	=64	=64	=64	=64	=64	=64	=64	=64	=64	=64	=64	=64	=64	=64	=64	=64	=64	=64	=64	=64	=64	=64
4r	.	.	8b/L	.	(8b/L	.	0.r	.	.	0.r	.	.	0.r	.	.	0.r	.	.	2.r	.	2.r	.
.	.	.	8g#/J	.	8g#/J)	.	.	.	.	.	.	.	.	.	.	.	.	.	.	.	.	.
.	.	.	8qqf#/	.	8qqf#/	.	.	.	.	.	.	.	.	.	.	.	.	.	.	.	.	.
4r	.	.	4e/	.	4e/	.	.	.	.	.	.	.	.	.	.	.	.	.	.	.	.	.
4E\	.	.	4b\	.	4b\	.	.	.	.	.	.	.	.	.	.	.	.	.	.	.	.	.
!	!	!	!LO:LB:g=original	!	!	!	!	!	!	!	!	!	!	!	!	!	!	!	!	!	!	!
=65	=65	=65	=65	=65	=65	=65	=65	=65	=65	=65	=65	=65	=65	=65	=65	=65	=65	=65	=65	=65	=65	=65
2D#X\	6	.	4b\	.	4bM\	.	.	.	.	.	.	.	.	.	.	.	.	.	2.b\	p	2.b\	p
.	.	.	8b\L	.	8aa\L	.	.	.	.	.	.	.	.	.	.	.	.	.	.	.	.	.
.	.	.	8b\	.	8ff#\	.	.	.	.	.	.	.	.	.	.	.	.	.	.	.	.	.
4E\	5	.	8b\	.	8gg#\	.	.	.	.	.	.	.	.	.	.	.	.	.	.	.	.	.
.	.	.	8b\J	.	8ee\J	.	.	.	.	.	.	.	.	.	.	.	.	.	.	.	.	.
!LO:LB:g=original	!	!	!	!	!	!	!	!	!	!	!	!	!	!	!	!	!	!	!	!	!	!
=66	=66	=66	=66	=66	=66	=66	=66	=66	=66	=66	=66	=66	=66	=66	=66	=66	=66	=66	=66	=66	=66	=66
4B\	#_	.	4b\	.	8ee\L	.	.	.	.	.	.	.	.	.	.	.	.	.	2.b\	.	2.b\	.
.	.	.	.	.	8dd#X\	.	.	.	.	.	.	.	.	.	.	.	.	.	.	.	.	.
4A\	.	.	4a\	.	8cc#\	.	.	.	.	.	.	.	.	.	.	.	.	.	.	.	.	.
.	.	.	.	.	8b\J	.	.	.	.	.	.	.	.	.	.	.	.	.	.	.	.	.
4G#\	6	.	4g#\	.	4ee\	.	.	.	.	.	.	.	.	.	.	.	.	.	.	.	.	.
!	!	!	!	!	!LO:LB:g=original	!	!	!	!	!	!	!	!	!	!	!	!	!	!	!	!	!
=67	=67	=67	=67	=67	=67	=67	=67	=67	=67	=67	=67	=67	=67	=67	=67	=67	=67	=67	=67	=67	=67	=67
2D#X\	.	.	4b\	.	4bM\	.	.	.	.	.	.	.	.	.	.	.	.	.	2.b\	.	2.b\	.
.	.	.	8b\L	.	8aa\L	.	.	.	.	.	.	.	.	.	.	.	.	.	.	.	.	.
.	.	.	8b\	.	8ff#\	.	.	.	.	.	.	.	.	.	.	.	.	.	.	.	.	.
4E\	.	.	8b\	.	8gg#\	.	.	.	.	.	.	.	.	.	.	.	.	.	.	.	.	.
.	.	.	8b\J	.	8ee\J	.	.	.	.	.	.	.	.	.	.	.	.	.	.	.	.	.
=68	=68	=68	=68	=68	=68	=68	=68	=68	=68	=68	=68	=68	=68	=68	=68	=68	=68	=68	=68	=68	=68	=68
.	.	.	8qqa#X/	.	8qqaa#X/	.	.	.	.	.	.	.	.	.	.	.	.	.	.	.	.	.
4r	.	.	4b/	.	4bb\	.	2.r	.	.	2.r	.	.	2.r	.	.	2.r	.	.	4b\	.	4b\	.
8B\L|	.	.	4B/	.	4b/	.	.	.	.	.	.	.	.	.	.	.	.	.	4b\	.	4b\	.
8A\|	.	.	.	.	.	.	.	.	.	.	.	.	.	.	.	.	.	.	.	.	.	.
!	!	!	!	!	!	!	!	!	!	!	!	!	!	!	!	!	!	!	!	!LO:DY:t=forte	!	!
8G#\|	.	.	4r	.	4r	.	.	.	.	.	.	.	.	.	.	.	.	.	4r	f	4r	.
8F#\J|	.	.	.	.	.	.	.	.	.	.	.	.	.	.	.	.	.	.	.	.	.	.
!	!	!	!	!	!	!	!	!	!	!LO:LB:g=original	!	!	!	!	!	!	!	!	!	!	!	!
=69	=69	=69	=69	=69	=69	=69	=69	=69	=69	=69	=69	=69	=69	=69	=69	=69	=69	=69	=69	=69	=69	=69
!LO:TX:a:i:t=Tutti	!	!	!	!	!	!	!	!	!	!	!	!	!	!	!	!	!	!	!LO:TX:a:i:t=Tutti	!	!LO:TX:a:i:t=Tutti	!LO:DY:t=forte
4E\	.	.	2G#/	.	4e/	.	2E\	Tu	.	2B\	Tu	.	2g#\	Tu	.	2e/	Tu	.	4e/	,	4e/	f
4E\	.	.	.	.	4e/	.	.	.	.	.	.	.	.	.	.	.	.	.	4e/	.	4e/	.
4r	.	.	8c#/L	.	8a/L	.	4E\	es	.	4e\	es	.	8cc#\L	es	.	8a\L	es	.	4r	.	4r	.
.	.	.	8B/J	.	8g#/J	.	.	.	.	.	.	.	8b\J	.	.	8g#\J	.	.	.	.	.	.
!LO:PB:g=original	!	!	!	!	!	!	!	!	!	!	!	!	!	!	!	!	!	!	!LO:LB:g=original	!	!LO:LB:g=original	!
=70	=70	=70	=70	=70	=70	=70	=70	=70	=70	=70	=70	=70	=70	=70	=70	=70	=70	=70	=70	=70	=70	=70
4BB/	6 4	.	8B/L	.	8g#/L	.	4BB/	il-	.	4B\	il-	.	8b\L	il-	.	8g#/L	il-	.	4b\	.	4b\	.
.	5 #	.	8A/J	.	8f#/J	.	.	.	.	.	.	.	8a\J	.	.	8f#/J	.	.	.	.	.	.
8E\L|	.	.	4G#/	.	4e/	.	4E\	-la	.	4e\	-la	.	4g#\	-la	.	4e/	-la	.	4e/	.	4e/	.
8C#\J|	.	.	.	.	.	.	.	.	.	.	.	.	.	.	.	.	.	.	.	.	.	.
8GG#/L|	.	.	4r	.	4r	.	4r	.	.	4r	.	.	4r	.	.	4r	.	.	4r	.	4r	.
8EE/J|	.	.	.	.	.	.	.	.	.	.	.	.	.	.	.	.	.	.	.	.	.	.
!	!	!	!	!	!	!	!	!	!	!LO:LB:g=original	!	!	!	!	!	!	!	!	!	!	!	!
=71	=71	=71	=71	=71	=71	=71	=71	=71	=71	=71	=71	=71	=71	=71	=71	=71	=71	=71	=71	=71	=71	=71
4E\	.	.	2e/	.	4g#/	.	2E\	Spe-	.	2B\	ſpe-	.	2e\	ſpe-	.	2g#\	ſpe-	.	4e/	.	4e/	.
4E\	.	.	.	.	4g#/	.	.	.	.	.	.	.	.	.	.	.	.	.	4e/	.	4e/	.
4r	.	.	8a/L	.	8cc#\L	.	4E\	-ci-	.	4e\	-ci-	.	8a\L	-ci-	.	8cc#\L	-ci-	.	4r	.	4r	.
.	.	.	8g#/J	.	8b\J	.	.	.	.	.	.	.	8g#\J	.	.	8b\J	.	.	.	.	.	.
!	!	!	!LO:PB:g=original	!	!	!	!	!	!	!	!	!	!LO:LB:g=original	!	!	!	!	!	!	!	!	!
=72	=72	=72	=72	=72	=72	=72	=72	=72	=72	=72	=72	=72	=72	=72	=72	=72	=72	=72	=72	=72	=72	=72
4BB/	6 4	.	8g#/L	.	8b\L	.	4B\	-o-	.	4B\	-o-	.	8g#\L	-o-	.	8b\L	-o-	.	4b\	.	4b\	.
.	5 #	.	8f#/J	.	8a\J	.	.	.	.	.	.	.	8f#\J	.	.	8a\J	.	.	.	.	.	.
8EE/L	.	.	4e/	.	4g#\	.	4E\	-sa	.	4B\	-sa	.	4e\	-sa	.	4g#\	-sa	.	4e/	.	4e/	.
8GG#/	.	.	.	.	.	.	.	.	.	.	.	.	.	.	.	.	.	.	.	.	.	.
8BB/	.	.	8r	.	8r	.	8r	.	.	8r	.	.	8r	.	.	8r	.	.	4r	.	4r	.
8E/J	.	.	8g#/	.	8b\|	.	8E\	qua	.	8e\	qua	.	8g#\	qua	.	8b\	qua	.	.	.	.	.
=73	=73	=73	=73	=73	=73	=73	=73	=73	=73	=73	=73	=73	=73	=73	=73	=73	=73	=73	=73	=73	=73	=73
4F#\	9 4	.	8g#/L	.	(8b\L	.	4F#\	nul-	.	4c#\	nul-	.	8g#\L	nul-	.	8b\L	nul-	.	1.r	.	1.r	.
.	8 3	.	8f#/J	.	8a\J)	.	.	.	.	.	.	.	8f#\J	.	.	8a\J	.	.	.	.	.	.
!LO:TX:t=P:problem=mixed beam	!	!	!	!	!	!	!	!	!	!	!	!	!	!	!	!	!	!	!	!	!	!
8F#\L	.	.	4f#/	.	4a\|	.	4F#\	-la,	.	4c#\	-la,	.	4f#\	-la,	.	4a\	-la,	.	.	.	.	.
8BB/	7	.	.	.	.	.	.	.	.	.	.	.	.	.	.	.	.	.	.	.	.	.
8D#X/	.	.	8r	.	8r	.	8r	.	.	8r	.	.	8r	.	.	8r	.	.	.	.	.	.
*	*	*	*	*	*	*	*	*	*	*	*ij	*	*	*ij	*	*	*	*	*	*	*	*
8BB/J	.	.	8f#/	.	8a\|	.	8BB/	qua	.	8c#\	qua	.	8f#\	qua	.	8a\	qua	.	.	.	.	.
!	!	!	!	!	!LO:PB:g=original	!	!	!	!	!	!	!	!	!	!	!LO:LB:g=original	!	!	!	!	!	!
=74	=74	=74	=74	=74	=74	=74	=74	=74	=74	=74	=74	=74	=74	=74	=74	=74	=74	=74	=74	=74	=74	=74
4E\	9 4	.	8f#/L	.	(8a/L	.	4E\	nul-	.	4B\	nul-	.	8f#\L	nul-	.	8a\L	nul-	.	.	.	.	.
.	8 3	.	8e/J	.	8g#/J)	.	.	.	.	.	.	.	8e\J	.	.	8g#\J	.	.	.	.	.	.
!LO:TX:t=P:problem=mixed beam	!	!	!	!	!	!	!	!	!	!	!	!	!	!	!	!	!	!	!	!	!	!
8E\L	.	.	4e/	.	8g#/|	.	4E\	-la,	.	4B\	-la	.	4e\	-la	.	4g#\	-la	.	.	.	.	.
*	*	*	*	*	*	*	*	*	*	*	*Xij	*	*	*Xij	*	*	*	*	*	*	*	*
8EE/	.	.	.	.	4r	.	.	.	.	.	.	.	.	.	.	.	.	.	.	.	.	.
8GG#/	.	.	8r	.	.	.	8r	.	.	8r	.	.	8r	.	.	8r	.	.	.	.	.	.
8EE/J	.	.	8b\	.	8g#/	.	8E\	est	.	8e\	est	.	8b\	est	.	8g#\	est	.	.	.	.	.
!LO:LB:g=original	!	!	!	!	!	!	!LO:LB:g=original	!	!	!	!	!	!	!	!	!	!	!	!	!	!	!
=75	=75	=75	=75	=75	=75	=75	=75	=75	=75	=75	=75	=75	=75	=75	=75	=75	=75	=75	=75	=75	=75	=75
.	.	.	.	.	.	.	.	.	.	.	.	.	8qqb/	.	.	8qqg#/	.	.	.	.	.	.
4AA/	.	.	16b\LL	.	(16g#/LL	.	4A\	pul-	.	4e\	pul-	.	4a\	pul-	.	4f#/	pul-	.	4r	.	4r	.
.	.	.	16a\	.	16f#/	.	.	.	.	.	.	.	.	.	.	.	.	.	.	.	.	.
.	.	.	16cc#\	.	16a/	.	.	.	.	.	.	.	.	.	.	.	.	.	.	.	.	.
.	.	.	16a\JJ	.	16f#/JJ)	.	.	.	.	.	.	.	.	.	.	.	.	.	.	.	.	.
4BB/	6 4	.	4g#/	.	4e/	.	4B\	.	.	2B\	-chri-	.	4g#\	-chri-	.	4e/	-chri-	.	4b\	.	4b\	.
4BB/	5 #	.	4f#/	.	4d#X/	.	4BB/	-chri-	.	.	.	.	4f#\	.	.	4d#X/	.	.	4b\	.	4b\	.
=76	=76	=76	=76	=76	=76	=76	=76	=76	=76	=76	=76	=76	=76	=76	=76	=76	=76	=76	=76	=76	=76	=76
4E\	.	.	4g#/	.	4e/	.	4E\	-or	.	4B\	-or	.	4g#\	-or	.	4e/	-or.	.	4b\	.	4b\	.
4r	.	.	8e/L|	.	8e/L|	.	4r	.	.	4r	.	.	4r	.	.	4r	.	.	4r	.	4r	.
.	.	.	8dn/|	.	8dn/|	.	.	.	.	.	.	.	.	.	.	.	.	.	.	.	.	.
4r	.	.	8c#/|	.	8c#/|	.	4r	ſo-	.	4r	.	.	4r	.	.	4r	.	.	4r	.	4r	.
.	.	.	8B/J|	.	8B/J|	.	.	-lus	.	.	.	.	.	.	.	.	.	.	.	.	.	.
=77	=77	=77	=77	=77	=77	=77	=77	=77	=77	=77	=77	=77	=77	=77	=77	=77	=77	=77	=77	=77	=77	=77
4A\	.	.	4A/	.	4A/	.	2A\	Tu	.	2E/	Tu	.	2c#\	Tu	.	2a\	Tu	.	4c#/	.	4a\	.
4AA/	.	.	4c#/	.	4a\	.	.	.	.	.	.	.	.	.	.	.	.	.	4c#/	.	4a\	.
4r	.	.	8f#/L	.	8dd\L	.	4A\	es	.	4A\	es	.	8f#\L	es	.	8dd\L	es	.	4r	.	4r	.
.	.	.	8e/J	.	8cc#\J	.	.	.	.	.	.	.	8e\J	.	.	8cc#\J	.	.	.	.	.	.
!	!	!	!LO:LB:g=original	!	!	!	!	!	!	!LO:LB:g=original	!	!	!LO:LB:g=original	!	!	!	!	!	!	!	!	!
=78	=78	=78	=78	=78	=78	=78	=78	=78	=78	=78	=78	=78	=78	=78	=78	=78	=78	=78	=78	=78	=78	=78
4E\	6 4	.	8e/L	.	8cc#\L	.	4E\	il-	.	4E/	il-	.	8e\L	il-	.	8cc#\L	il-	.	4e/	.	4e/	.
.	8 3	.	8d/J	.	8b\J	.	.	.	.	.	.	.	8d\J	.	.	8b\J	.	.	.	.	.	.
8A\L|	.	.	4c#/	.	4a\	.	4A\	-la	.	4A/	-la	.	4c#\	-la	.	4a\	-la	.	4c#/	.	4a\	.
8E\J|	.	.	.	.	.	.	.	.	.	.	.	.	.	.	.	.	.	.	.	.	.	.
8C#/L|	.	.	4r	.	4r	.	4r	.	.	4r	.	.	4r	.	.	4r	.	.	4r	.	4r	.
8AA/J|	.	.	.	.	.	.	.	.	.	.	.	.	.	.	.	.	.	.	.	.	.	.
!	!	!	!	!	!	!	!	!	!	!	!	!	!	!	!	!	!	!	!LO:LB:g=original	!	!	!
=79	=79	=79	=79	=79	=79	=79	=79	=79	=79	=79	=79	=79	=79	=79	=79	=79	=79	=79	=79	=79	=79	=79
4A\	.	.	4a\	.	4cc#\	.	2A\	Spe-	.	2E/	ſpe-	.	2a\	ſpe-	.	2cc#\	ſpe-	.	4a\	.	4cc#\	.
4AA/	.	.	4a\	.	4cc#\	.	.	.	.	.	.	.	.	.	.	.	.	.	4a\	.	4cc#\	.
4r	.	.	8dd\L	.	8ff#\L	.	4A\	-ci-	.	4A/	-ci-	.	8dd\L	-ci-	.	8ff#\L	-ci-	.	4r	.	4r	.
.	.	.	8cc#\J	.	8ee\J	.	.	.	.	.	.	.	8cc#\J	.	.	8ee\J	.	.	.	.	.	.
!LO:LB:g=original	!	!	!	!	!	!	!	!	!	!	!	!	!	!	!	!	!	!	!	!	!	!
=80	=80	=80	=80	=80	=80	=80	=80	=80	=80	=80	=80	=80	=80	=80	=80	=80	=80	=80	=80	=80	=80	=80
4GG#/	6 4	.	8cc#\L	.	8ee\L	.	4G#\	-o-	.	4E/	-o-	.	8cc#\L	-o-	.	8ee\L	-o-	.	8cc#\L	.	8ee\L	.
.	5 3	.	8b\J	.	8dd\J	.	.	.	.	.	.	.	8b\J	.	.	8dd\J	.	.	8b\J	.	8dd\J	.
8AA/L	.	.	4a\	.	4cc#\	.	4A\	-sa	.	4E/	-sa,	.	4a\	-sa,	.	4cc#\	-sa,	.	4a\	.	4cc#\	.
8C#/J	.	.	.	.	.	.	.	.	.	.	.	.	.	.	.	.	.	.	.	.	.	.
8E\L	.	.	8r	.	8r	.	8r	.	.	8r	.	.	8r	.	.	8r	.	.	8r	.	8r	.
8A\J	.	.	8cc#\	.	8ee\	.	8A\	qua	.	8A/	qua	.	8cc#\	qua	.	8ee\	qua	.	8cc#\	.	8ee\	.
!	!	!	!	!	!LO:LB:g=original	!	!	!	!	!	!	!	!	!	!	!LO:LB:g=original	!	!	!	!	!LO:LB:g=original	!
=81	=81	=81	=81	=81	=81	=81	=81	=81	=81	=81	=81	=81	=81	=81	=81	=81	=81	=81	=81	=81	=81	=81
4B\	9 4	.	8cc#\L	.	8ee\L	.	4B\	nul-	.	4F#/	nul-	.	8cc#\L	nul-	.	8ee\L	nul-	.	8cc#\L	.	8ee\L	.
.	8 3	.	8b\J	.	8dd\J	.	.	.	.	.	.	.	8b\J	.	.	8dd\J	.	.	8b\J	.	8dd\J	.
8B\L	.	.	4b\	.	4dd\	.	4B\	-la	.	4F#/	-la	.	4b\	-la	.	4dd\	-la	.	4b\	.	4dd\	.
8E\	7	.	.	.	.	.	.	.	.	.	.	.	.	.	.	.	.	.	.	.	.	.
8G#\	.	.	8r	.	8r	.	8r	.	.	8r	.	.	8r	.	.	8r	.	.	8r	.	8r	.
*	*	*	*	*	*	*	*	*	*	*	*	*	*	*ij	*	*	*	*	*	*	*	*
8E\J	.	.	8b\	.	8dd\	.	8E\	qua	.	8G#/	qua	.	8b\	qua	.	8dd\	qua	.	8b\	.	8dd\	.
=82	=82	=82	=82	=82	=82	=82	=82	=82	=82	=82	=82	=82	=82	=82	=82	=82	=82	=82	=82	=82	=82	=82
4A\	9 4	.	8b\L	.	8dd\L	.	4A\	nul-	.	4E/	nul-	.	8b\L	nul-	.	8dd\L	nul-	.	8b\L	.	8dd\L	.
.	8 3	.	8a\J	.	8cc#\J	.	.	.	.	.	.	.	8a\J	.	.	8cc#\J	.	.	8a\J	.	8cc#\J	.
!LO:TX:t=P:problem=mixed beam	!	!	!	!	!	!	!	!	!	!	!	!	!	!	!	!	!	!	!	!	!	!
8A\L	.	.	4a\	.	4cc#\	.	4A\	-la,	.	4E/	-la	.	4a\	-la	.	4cc#\	-la	.	4a\	.	4cc#\	.
*	*	*	*	*	*	*	*	*	*	*	*	*	*	*Xij	*	*	*	*	*	*	*	*
8AA/	.	.	.	.	.	.	.	.	.	.	.	.	.	.	.	.	.	.	.	.	.	.
8C#/	.	.	8r	.	8r	.	8r	.	.	8r	.	.	8r	.	.	8r	.	.	4r	.	4r	.
8AA/J	.	.	8e/	.	8cc#\	.	8C#/	est	.	8A\	est	.	8e\	est	.	8cc#\	est	.	.	.	.	.
=83	=83	=83	=83	=83	=83	=83	=83	=83	=83	=83	=83	=83	=83	=83	=83	=83	=83	=83	=83	=83	=83	=83
.	.	.	.	.	.	.	.	.	.	.	.	.	8qqe/	.	.	8qqcc#/	.	.	.	.	.	.
4D\	.	.	16e/LL	.	16cc#\LL	.	4D\	pul-	.	4f#\	pul-	.	4d\	pul-	.	4b\	pul-	.	4r	.	4r	.
.	.	.	16d/	.	16b\	.	.	.	.	.	.	.	.	.	.	.	.	.	.	.	.	.
.	.	.	16f#/	.	16dd\	.	.	.	.	.	.	.	.	.	.	.	.	.	.	.	.	.
.	.	.	16d/JJ	.	16b\JJ	.	.	.	.	.	.	.	.	.	.	.	.	.	.	.	.	.
4E\	6 4	.	4c#/	.	4a/	.	4E\	.	.	4e\	.	.	4c#\	.	.	4a\	.	.	4a\	.	4cc#\	.
4EE/	5 3	.	4B/	.	4g#/	.	4EE/	-chri-	.	4e\	-chri-	.	4B\	-chri-	.	4g#\	-chri-	.	4e/	.	4b\	.
!	!	!	!	!	!	!	!	!	!	!LO:LB:g=original	!	!	!LO:LB:g=original	!	!	!	!	!	!	!	!	!
=84	=84	=84	=84	=84	=84	=84	=84	=84	=84	=84	=84	=84	=84	=84	=84	=84	=84	=84	=84	=84	=84	=84
.	.	.	8qqB/	.	8qqg#/	.	.	.	.	.	.	.	8qqB/	.	.	8qqg#/	.	.	.	.	.	.
4AA/	.	.	4.c#/	.	4.a/	.	4AA/	-or	.	2e\	-or	.	2c#\	-or	.	2a\	-or	.	4a\	.	4cc#\	.
4C#/	6	.	.	.	.	.	2C#/	qua	.	.	.	.	.	.	.	.	.	.	2a\	.	2cc#\	.
.	.	.	8cc#\L	.	8ee\L	.	.	.	.	.	.	.	.	.	.	.	.	.	.	.	.	.
4C#/	.	.	8cc#\	.	8ee\	.	.	.	.	4c#\	qua	.	4a\	qua	.	4ee\	qua	.	.	.	.	.
.	.	.	8cc#\J	.	8ee\J	.	.	.	.	.	.	.	.	.	.	.	.	.	.	.	.	.
!LO:LB:g=original	!	!	!LO:LB:g=original	!	!	!	!	!	!	!	!	!	!	!	!	!	!	!	!	!	!	!
=85	=85	=85	=85	=85	=85	=85	=85	=85	=85	=85	=85	=85	=85	=85	=85	=85	=85	=85	=85	=85	=85	=85
4D\	.	.	16dd\LL	.	16ff#\LL	.	2.D\	nul-	.	2A\	nul-	.	2f#\	nul-	.	2dd\	nul-	.	4a\	.	2.dd\	.
.	.	.	16cc#\	.	16ee\	.	.	.	.	.	.	.	.	.	.	.	.	.	.	.	.	.
.	.	.	16dd\	.	16ff#\	.	.	.	.	.	.	.	.	.	.	.	.	.	.	.	.	.
.	.	.	16ee\JJ	.	16gg#\JJ	.	.	.	.	.	.	.	.	.	.	.	.	.	.	.	.	.
4D\	.	.	8dd\L	.	8ff#\L	.	.	.	.	.	.	.	.	.	.	.	.	.	4a\	.	.	.
.	.	.	8dd\	.	8aa\	.	.	.	.	.	.	.	.	.	.	.	.	.	.	.	.	.
4D\	4 2	.	8dd\	.	8gg#\	.	.	.	.	4E/	.	.	4g#\	.	.	4b\	.	.	4r	.	.	.
.	.	.	8dd\J	.	8bb\J	.	.	.	.	.	.	.	.	.	.	.	.	.	.	.	.	.
!	!	!	!	!	!	!	!	!	!	!	!	!	!	!	!	!	!	!	!LO:LB:g=original	!	!	!
=86	=86	=86	=86	=86	=86	=86	=86	=86	=86	=86	=86	=86	=86	=86	=86	=86	=86	=86	=86	=86	=86	=86
4C#\	6	.	16cc#\LL	.	16aa\LL	.	2.C#\	.	.	2E/	.	.	2.a\	.	.	2cc#\	.	.	2.a\	.	2.cc#\	.
.	.	.	16b\	.	16gg#\	.	.	.	.	.	.	.	.	.	.	.	.	.	.	.	.	.
.	.	.	16cc#\	.	16aa\	.	.	.	.	.	.	.	.	.	.	.	.	.	.	.	.	.
.	.	.	16dd\JJ	.	16bb\JJ	.	.	.	.	.	.	.	.	.	.	.	.	.	.	.	.	.
4C#\	.	.	8cc#\L	.	8aa\L	.	.	.	.	.	.	.	.	.	.	.	.	.	.	.	.	.
.	.	.	8cc#\	.	8ee\	.	.	.	.	.	.	.	.	.	.	.	.	.	.	.	.	.
4C#\	.	.	8cc#\	.	8ee\	.	.	.	.	4c#\	.	.	.	.	.	4ee\	.	.	.	.	.	.
.	.	.	8cc#\J	.	8ee\J	.	.	.	.	.	.	.	.	.	.	.	.	.	.	.	.	.
!	!	!	!	!	!LO:LB:g=original	!	!	!	!	!	!	!	!	!	!	!	!	!	!	!	!	!
=87	=87	=87	=87	=87	=87	=87	=87	=87	=87	=87	=87	=87	=87	=87	=87	=87	=87	=87	=87	=87	=87	=87
4D\	.	.	16dd\LL	.	16ff#\LL	.	2.D\	.	.	2A\	.	.	2f#\	.	.	2dd\	.	.	4a\	.	2.dd\	.
.	.	.	16cc#\	.	16ee\	.	.	.	.	.	.	.	.	.	.	.	.	.	.	.	.	.
.	.	.	16dd\	.	16ff#\	.	.	.	.	.	.	.	.	.	.	.	.	.	.	.	.	.
.	.	.	16ee\JJ	.	16gg#\JJ	.	.	.	.	.	.	.	.	.	.	.	.	.	.	.	.	.
4D\	.	.	8dd\L	.	8ff#\L	.	.	.	.	.	.	.	.	.	.	.	.	.	4a\	.	.	.
.	.	.	8dd\	.	8aa\	.	.	.	.	.	.	.	.	.	.	.	.	.	.	.	.	.
4D\	4 2	.	8dd\	.	8gg#\	.	.	.	.	4E/	.	.	4g#\	.	.	4b\	.	.	4r	.	.	.
.	.	.	8dd\J	.	8bb\J	.	.	.	.	.	.	.	.	.	.	.	.	.	.	.	.	.
!	!	!	!	!	!	!	!	!	!	!	!	!	!	!	!	!LO:LB:g=original	!	!	!	!	!	!
=88	=88	=88	=88	=88	=88	=88	=88	=88	=88	=88	=88	=88	=88	=88	=88	=88	=88	=88	=88	=88	=88	=88
4C#\	6	.	16cc#\LL	.	16aa\LL	.	2C#\	-la	.	2E/	-la	.	2a\	-la	.	2cc#\	-la	.	2.a\	.	2.cc#\	.
.	.	.	16b\	.	16gg#\	.	.	.	.	.	.	.	.	.	.	.	.	.	.	.	.	.
.	.	.	16cc#\	.	16aa\	.	.	.	.	.	.	.	.	.	.	.	.	.	.	.	.	.
.	.	.	16dd\JJ	.	16bb\JJ	.	.	.	.	.	.	.	.	.	.	.	.	.	.	.	.	.
4C#\	.	.	8cc#\L	.	8aa\L	.	.	.	.	.	.	.	.	.	.	.	.	.	.	.	.	.
.	.	.	8cc#\	.	8ee\	.	.	.	.	.	.	.	.	.	.	.	.	.	.	.	.	.
4C#\	.	.	8cc#\	.	8ee\	.	4C#\	est	.	4A\	est	.	4cc#\	est	.	4ee\	est	.	.	.	.	.
.	.	.	8cc#\J	.	8ee\J	.	.	.	.	.	.	.	.	.	.	.	.	.	.	.	.	.
=89	=89	=89	=89	=89	=89	=89	=89	=89	=89	=89	=89	=89	=89	=89	=89	=89	=89	=89	=89	=89	=89	=89
!	!	!	!LO:TUP:a:problem=klamra łukowa, kropka zamiast numeru	!	!LO:TUP:a:problem=klamra łukowa, kropka zamiast numeru	!	!	!	!	!	!	!	!	!	!	!	!	!	!	!	!	!
4C#\	6	.	12cc#\L	.	12ee\L	.	4C#\	pul-	.	4A\	pul-	.	4cc#\	pul-	.	4ee\	pul-	.	4a\	.	4cc#\	.
.	.	.	12dd\	.	12ff#\	.	.	.	.	.	.	.	.	.	.	.	.	.	.	.	.	.
.	.	.	12cc#\J	.	12ee\J	.	.	.	.	.	.	.	.	.	.	.	.	.	.	.	.	.
!	!	!	!LO:TUP:a:problem=klamra łukowa, kropka zamiast numeru	!	!LO:TUP:a:problem=klamra łukowa, kropka zamiast numeru	!	!	!	!	!	!	!	!	!	!	!	!	!	!	!	!	!
4D\	8 6	.	12b\L	.	12dd\L	.	4D\	.	.	4f#\	.	.	4b\	.	.	4dd\	.	.	4r	.	4r	.
.	.	.	12cc#\	.	12ee\	.	.	.	.	.	.	.	.	.	.	.	.	.	.	.	.	.
.	.	.	12b\J	.	12dd\J	.	.	.	.	.	.	.	.	.	.	.	.	.	.	.	.	.
!	!	!	!LO:TUP:a:problem=klamra łukowa, kropka zamiast numeru	!	!LO:TUP:a:problem=klamra łukowa, kropka zamiast numeru	!	!	!	!	!	!	!	!	!	!	!	!	!	!	!	!	!
4D#X\	7 5	.	12a\L	.	12cc#\L	.	4D#\	-chri-	.	4f#\	-chri-	.	4a\	-chri-	.	4cc#\	-chri-	.	4r	.	4r	.
.	.	.	12b\	.	12dd\	.	.	.	.	.	.	.	.	.	.	.	.	.	.	.	.	.
.	.	.	12a\J	.	12cc#\J	.	.	.	.	.	.	.	.	.	.	.	.	.	.	.	.	.
!LO:LB:g=original	!	!	!LO:LB:g=original	!	!	!	!	!	!	!	!	!	!	!	!	!	!	!	!	!	!	!
=90	=90	=90	=90	=90	=90	=90	=90	=90	=90	=90	=90	=90	=90	=90	=90	=90	=90	=90	=90	=90	=90	=90
4E\	6 4	.	4a/	.	4cc#\	.	2E\	-or	.	2e\	-or	.	4a\	.	.	4cc#\	.	.	4a\	.	4cc#\	.
4EE/	5 3	.	4g#/	.	4b\	.	.	.	.	.	.	.	4g#\	-or	.	4b\	-or	.	4e/	.	4b\	.
!	!	!	!LO:TX:a:i:t=Solo	!LO:DY:t=pia&colon;	!	!LO:DY:t=pia&colon;	!	!	!	!LO:TX:a:i:t=Solo.	!	!	!	!	!	!	!	!	!	!	!	!
4r	.	.	8cc#\L	p	8ee\L	p	4r	.	.	8e\	ru-	.	4r	.	.	4r	.	.	4r	.	4r	.
.	.	.	8ee\J	.	8ggn\J	.	.	.	.	8gn\	-bi-	.	.	.	.	.	.	.	.	.	.	.
!	!	!	!	!	!	!	!LO:LB:g=original	!	!	!	!	!	!	!	!	!	!	!	!	!	!LO:LB:g=original	!
=91	=91	=91	=91	=91	=91	=91	=91	=91	=91	=91	=91	=91	=91	=91	=91	=91	=91	=91	=91	=91	=91	=91
.	.	.	8qqee/	.	.	.	.	.	.	8qqgny/	.	.	.	.	.	.	.	.	.	.	.	.
!	!	!	!	!	!	!	!LO:TX:a:i:t=Solo.	!	!	!	!	!	!	!	!	!LO:TX:b:t=15:color=grey	!	!	!	!	!	!
4r	.	.	4dd\	.	(8ggny\L	.	4r	.	.	4f#\	-cun-	.	0.r	.	.	0.r	.	.	0.r	.	0.r	.
.	.	.	.	.	8ff#\J)	.	.	.	.	.	.	.	.	.	.	.	.	.	.	.	.	.
!	!	!LO:DY:t=piano	!	!	!	!	!	!	!	!	!	!	!	!	!	!	!	!	!	!	!	!
4r	.	p	4dd\	.	4ff#\	.	4r	.	.	4f#\	-da	.	.	.	.	.	.	.	.	.	.	.
8.F#\L	7 #	.	8a#X\L	.	8cc#\L	.	8A#\	plus	.	4r	.	.	.	.	.	.	.	.	.	.	.	.
.	.	.	8cc#\J	.	8ee\J	.	8A#\	quam	.	.	.	.	.	.	.	.	.	.	.	.	.	.
16F#\Jk	.	.	.	.	.	.	.	.	.	.	.	.	.	.	.	.	.	.	.	.	.	.
!	!	!	!	!	!	!	!	!	!	!LO:LB:g=original	!	!	!	!	!	!	!	!	!	!	!	!
=92	=92	=92	=92	=92	=92	=92	=92	=92	=92	=92	=92	=92	=92	=92	=92	=92	=92	=92	=92	=92	=92	=92
.	.	.	8qqcc#/	.	.	.	.	.	.	.	.	.	.	.	.	.	.	.	.	.	.	.
4B\	9 4	.	4b\	.	8ee\L	.	4B\	Ro-	.	4r	.	.	.	.	.	.	.	.	.	.	.	.
.	8 3	.	.	.	8dd\J	.	.	.	.	.	.	.	.	.	.	.	.	.	.	.	.	.
4BB/	.	.	4b\	.	4dd\	.	4BB/	-sa	.	4r	.	.	.	.	.	.	.	.	.	.	.	.
4r	.	.	8g#/L	.	8dd\L	.	4r	.	.	8d\	ru-	.	.	.	.	.	.	.	.	.	.	.
.	.	.	8b/J	.	8ff#\J	.	.	.	.	8f#\	-bi-	.	.	.	.	.	.	.	.	.	.	.
!	!	!	!	!	!LO:LB:g=original	!	!	!	!	!	!	!	!	!	!	!	!	!	!	!	!	!
=93	=93	=93	=93	=93	=93	=93	=93	=93	=93	=93	=93	=93	=93	=93	=93	=93	=93	=93	=93	=93	=93	=93
.	.	.	8qqdd/	.	.	.	.	.	.	8qqf#/	.	.	.	.	.	.	.	.	.	.	.	.
4r	.	.	4cc#\	.	8ff#\L	.	4r	.	.	4e\	-cun-	.	.	.	.	.	.	.	.	.	.	.
.	.	.	.	.	8ee\J	.	.	.	.	.	.	.	.	.	.	.	.	.	.	.	.	.
4r	.	.	4cc#\	.	4ee\	.	4r	.	.	4e\	-da	.	.	.	.	.	.	.	.	.	.	.
8.E\L	7	.	8g#/L	.	8b\L	.	8G#\	plus	.	4r	.	.	.	.	.	.	.	.	.	.	.	.
.	.	.	8b/J	.	8dd\J	.	8G#\	quam	.	.	.	.	.	.	.	.	.	.	.	.	.	.
16E\Jk	.	.	.	.	.	.	.	.	.	.	.	.	.	.	.	.	.	.	.	.	.	.
=94	=94	=94	=94	=94	=94	=94	=94	=94	=94	=94	=94	=94	=94	=94	=94	=94	=94	=94	=94	=94	=94	=94
4A\	9 4	.	8b/L	.	8dd\L	.	4A\	Ro-	.	1.r	.	.	.	.	.	.	.	.	.	.	.	.
.	8 3	.	8a/J	.	8cc#\J	.	.	.	.	.	.	.	.	.	.	.	.	.	.	.	.	.
4AA/	.	.	4a/	.	4cc#\	.	4AA/	-sa	.	.	.	.	.	.	.	.	.	.	.	.	.	.
8A\L	.	.	4r	.	4r	.	4c#\	Ro-	.	.	.	.	.	.	.	.	.	.	.	.	.	.
8G#\J	.	.	.	.	.	.	.	.	.	.	.	.	.	.	.	.	.	.	.	.	.	.
=95	=95	=95	=95	=95	=95	=95	=95	=95	=95	=95	=95	=95	=95	=95	=95	=95	=95	=95	=95	=95	=95	=95
4F#\	5	.	4f#/	.	4a\	.	8c#\L	.	.	.	.	.	0.r	.	.	0.r	.	.	0.r	.	0.r	.
.	.	.	.	.	.	.	16B\L	.	.	.	.	.	.	.	.	.	.	.	.	.	.	.
.	.	.	.	.	.	.	16c#\JJ	.	.	.	.	.	.	.	.	.	.	.	.	.	.	.
4r	.	.	4f#/	.	4a\	.	8d\L	.	.	.	.	.	.	.	.	.	.	.	.	.	.	.
.	.	.	.	.	.	.	8B\	.	.	.	.	.	.	.	.	.	.	.	.	.	.	.
4B#X\	6	.	4r	.	4r	.	8G#\	.	.	.	.	.	.	.	.	.	.	.	.	.	.	.
.	5	.	.	.	.	.	8F#\J	.	.	.	.	.	.	.	.	.	.	.	.	.	.	.
!LO:LB:g=original	!	!	!	!	!	!	!	!	!	!	!	!	!	!	!	!	!	!	!	!	!	!
=96	=96	=96	=96	=96	=96	=96	=96	=96	=96	=96	=96	=96	=96	=96	=96	=96	=96	=96	=96	=96	=96	=96
4c#\	.	.	4e#X/	.	4g#/	.	2.E#\	.	.	8e#X\L	Ro-	.	.	.	.	.	.	.	.	.	.	.
.	.	.	.	.	.	.	.	.	.	8f#M\J	.	.	.	.	.	.	.	.	.	.	.	.
4r	.	.	4e#/	.	4g#/	.	.	.	.	8g#\L	.	.	.	.	.	.	.	.	.	.	.	.
.	.	.	.	.	.	.	.	.	.	8e#\	.	.	.	.	.	.	.	.	.	.	.	.
4E#X\	6	.	4r	.	4r	.	.	.	.	8d\	.	.	.	.	.	.	.	.	.	.	.	.
.	5	.	.	.	.	.	.	.	.	8c#\J	.	.	.	.	.	.	.	.	.	.	.	.
!	!	!	!LO:LB:g=original	!	!	!	!	!	!	!	!	!	!	!	!	!	!	!	!	!	!	!
=97	=97	=97	=97	=97	=97	=97	=97	=97	=97	=97	=97	=97	=97	=97	=97	=97	=97	=97	=97	=97	=97	=97
4F#\	.	.	4c#/	.	4c#/	.	4F#\	.	.	4A\	.	.	.	.	.	.	.	.	.	.	.	.
8E#X\L	.	.	4r	.	4r	.	4G#\	.	.	4BM\	.	.	.	.	.	.	.	.	.	.	.	.
8C#\J	.	.	.	.	.	.	.	.	.	.	.	.	.	.	.	.	.	.	.	.	.	.
4F#\	.	.	4r	.	4r	.	4A\	-sa	.	4c#\	-sa	.	.	.	.	.	.	.	.	.	.	.
=98	=98	=98	=98	=98	=98	=98	=98	=98	=98	=98	=98	=98	=98	=98	=98	=98	=98	=98	=98	=98	=98	=98
4F#\	6 4	.	4r	.	4r	.	8B\L	Ro-	.	8d\L	Ro-	.	.	.	.	.	.	.	.	.	.	.
.	5 3	.	.	.	.	.	8A\J	.	.	8c#\J	.	.	.	.	.	.	.	.	.	.	.	.
4F#\	.	.	8r	.	8r	.	4A\	-sa	.	4c#\	-sa	.	.	.	.	.	.	.	.	.	.	.
.	.	.	16ff#\LL	.	16ff#\LL	.	.	.	.	.	.	.	.	.	.	.	.	.	.	.	.	.
.	.	.	16ee#X\JJ	.	16ee#X\JJ	.	.	.	.	.	.	.	.	.	.	.	.	.	.	.	.	.
!	!	!	!LO:TX:t=P:problem=mixed beam	!	!LO:TX:t=P:problem=mixed beam	!	!	!	!	!	!	!	!	!	!	!	!	!	!	!	!	!
4r	.	.	8ff#\L	.	8ff#\L	.	4r	.	.	4r	.	.	.	.	.	.	.	.	.	.	.	.
.	.	.	8f#/J	.	8f#/J	.	.	.	.	.	.	.	.	.	.	.	.	.	.	.	.	.
=99	=99	=99	=99	=99	=99	=99	=99	=99	=99	=99	=99	=99	=99	=99	=99	=99	=99	=99	=99	=99	=99	=99
4F#\	6 4	.	4r	.	4r	.	8B\	li-	.	8d\L	li-	.	0.r	.	.	0.r	.	.	0.r	.	0.r	.
.	5 3	.	.	.	.	.	8A\	-li-	.	8c#\J	-li-	.	.	.	.	.	.	.	.	.	.	.
4FF#/	.	.	8r	.	8r	.	4A\	-ô	.	4c#\	-ô	.	.	.	.	.	.	.	.	.	.	.
.	.	.	16ff#\LL	.	16ff#\LL	.	.	.	.	.	.	.	.	.	.	.	.	.	.	.	.	.
.	.	.	16ee#X\JJ	.	16ee#X\JJ	.	.	.	.	.	.	.	.	.	.	.	.	.	.	.	.	.
!	!	!	!LO:TX:t=P:problem=mixed beam	!	!LO:TX:t=P:problem=mixed beam	!	!	!	!	!	!	!	!	!	!	!	!	!	!	!	!	!
4r	.	.	8ff#\L	.	8ff#\L	.	4A\	can-	.	4c#\	can-	.	.	.	.	.	.	.	.	.	.	.
.	.	.	8f#/J	.	8f#/J	.	.	.	.	.	.	.	.	.	.	.	.	.	.	.	.	.
!	!	!	!	!	!LO:LB:g=original	!	!	!	!	!LO:LB:g=original	!	!	!	!	!	!	!	!	!	!	!	!
=100	=100	=100	=100	=100	=100	=100	=100	=100	=100	=100	=100	=100	=100	=100	=100	=100	=100	=100	=100	=100	=100	=100
.	.	.	8qqa/	.	8qqcc#/	.	8qqA/	.	.	8qqc#/	.	.	.	.	.	.	.	.	.	.	.	.
4B\	.	.	4g#/	.	4b\	.	4G#\	-di-	.	4B\	-di-	.	.	.	.	.	.	.	.	.	.	.
4c#\	6 4	.	4f#/	.	4a\	.	4F#\	.	.	4A\	.	.	.	.	.	.	.	.	.	.	.	.
4C#/	5 #	.	4e#X/	.	4g#\	.	4E#\	-di-	.	4G#\	-di-	.	.	.	.	.	.	.	.	.	.	.
!LO:LB:g=original	!	!	!	!	!	!	!	!	!	!	!	!	!	!	!	!	!	!	!	!	!	!
=101	=101	=101	=101	=101	=101	=101	=101	=101	=101	=101	=101	=101	=101	=101	=101	=101	=101	=101	=101	=101	=101	=101
!	!	!	!	!	!LO:TX:t=P:problem=mixed beam	!	!	!	!	!	!	!	!	!	!	!	!	!	!	!	!	!
4F#\	.	.	8f#/	.	8f#/L	.	4F#\	-or	.	8A\	-or,	.	.	.	.	.	.	.	.	.	.	.
.	.	.	8r	.	8ff#\	.	.	.	.	8f#\	quam	.	.	.	.	.	.	.	.	.	.	.
4r	.	.	4r	.	8ff#\	.	4r	.	.	8f#\L	Ro-	.	.	.	.	.	.	.	.	.	.	.
.	.	.	.	.	8een\	.	.	.	.	8e\	.	.	.	.	.	.	.	.	.	.	.	.
4A#X\	.	.	4r	.	8dd\	.	4r	.	.	8d\	.	.	.	.	.	.	.	.	.	.	.	.
.	.	.	.	.	8cc#\J	.	.	.	.	8c#\J	.	.	.	.	.	.	.	.	.	.	.	.
=102	=102	=102	=102	=102	=102	=102	=102	=102	=102	=102	=102	=102	=102	=102	=102	=102	=102	=102	=102	=102	=102	=102
*	*	*	*	*	*2\right	*	*	*	*	*	*	*	*	*	*	*	*	*	*	*	*	*
4B\	.	.	8r	.	[2.dd\	.	8r	.	.	2.d\	-sa	.	.	.	.	.	.	.	.	.	.	.
.	.	.	8b/L|	.	.	.	8B\	quam,	.	.	.	.	.	.	.	.	.	.	.	.	.	.
4BB/	.	.	(8b/	.	.	.	8B\L	li-	.	.	.	.	.	.	.	.	.	.	.	.	.	.
.	.	.	8a/)	.	.	.	8A\J	.	.	.	.	.	.	.	.	.	.	.	.	.	.	.
4r	.	.	(8g#/	.	.	.	8G#\	.	.	.	.	.	.	.	.	.	.	.	.	.	.	.
.	.	.	8f#/J)	.	.	.	8F#\	-li-	.	.	.	.	.	.	.	.	.	.	.	.	.	.
!	!	!	!LO:LB:g=original	!	!	!	!	!	!	!	!	!	!	!	!	!	!	!	!	!	!	!
=103	=103	=103	=103	=103	=103	=103	=103	=103	=103	=103	=103	=103	=103	=103	=103	=103	=103	=103	=103	=103	=103	=103
4r	.	.	2.g#/	.	8dd\L]	.	2.G#\	-ô	.	8r	.	.	1.r	.	.	1.r	.	.	1.r	.	1.r	.
.	.	.	.	.	8ee\	.	.	.	.	8e\	can-	.	.	.	.	.	.	.	.	.	.	.
4r	.	.	.	.	8ee\	.	.	.	.	8e\L	-di-	.	.	.	.	.	.	.	.	.	.	.
.	.	.	.	.	8dd\	.	.	.	.	8d\J	.	.	.	.	.	.	.	.	.	.	.	.
4E\	.	.	.	.	8cc#\	.	.	.	.	8c#\	.	.	.	.	.	.	.	.	.	.	.	.
.	.	.	.	.	8b\J	.	.	.	.	8B\	-di-	.	.	.	.	.	.	.	.	.	.	.
!	!	!	!	!	!	!	!LO:LB:g=original	!	!	!	!	!	!	!	!	!	!	!	!	!	!	!
=104	=104	=104	=104	=104	=104	=104	=104	=104	=104	=104	=104	=104	=104	=104	=104	=104	=104	=104	=104	=104	=104	=104
4A\	.	.	8a\L	.	8cc#\L	.	8r	.	.	8c#\	-or	.	.	.	.	.	.	.	.	.	.	.
.	.	.	8cc#\J	.	8ee\J	.	8c#\	can-	.	8e\	can-	.	.	.	.	.	.	.	.	.	.	.
.	.	.	8qqcc#/	.	8qqee/	.	8qqc#/	.	.	8qqe/	.	.	.	.	.	.	.	.	.	.	.	.
4G#\	6 4	.	4b\	.	4dd\	.	4B\	-di-	.	4d\	-di-	.	.	.	.	.	.	.	.	.	.	.
.	5 3	.	8qqb/	.	.	.	8qqB/	.	.	8qqd/	.	.	.	.	.	.	.	.	.	.	.	.
4A\	9 4	.	4a\	.	4cc#\	.	4A\	-di-	.	4c#\	-di-	.	.	.	.	.	.	.	.	.	.	.
.	8 3	.	.	.	.	.	.	.	.	.	.	.	.	.	.	.	.	.	.	.	.	.
=105	=105	=105	=105	=105	=105	=105	=105	=105	=105	=105	=105	=105	=105	=105	=105	=105	=105	=105	=105	=105	=105	=105
.	.	.	.	.	.	.	8qqA/	.	.	8qqc#/	.	.	.	.	.	.	.	.	.	.	.	.
!	!	!	!	!	!	!	!	!	!LO:DY:a	!	!	!	!	!	!	!	!	!	!	!	!	!
4E\	6 4	.	4a/	.	4cc#\	.	2G#\	-or	p	2B\	-or	.	2.r	.	.	2.r	.	.	2.r	.	2.r	.
!	!	!	!LO:TX:a:i:t=Tutti	!LO:DY:t=for	!	!	!	!	!	!	!	!	!	!	!	!	!	!	!	!	!	!
4EE/	5 3	.	8g#\L	f	8b\L	f	.	.	.	.	.	.	.	.	.	.	.	.	.	.	.	.
.	.	.	16cc#\L	.	16ee\L	.	.	.	.	.	.	.	.	.	.	.	.	.	.	.	.	.
.	.	.	16dd\JJ	.	16ff#\JJ	.	.	.	.	.	.	.	.	.	.	.	.	.	.	.	.	.
4r	.	.	16cc#\LL	.	16ee\LL	.	4r	.	.	4r	.	.	.	.	.	.	.	.	.	.	.	.
.	.	.	16b\	.	16ff#\	.	.	.	.	.	.	.	.	.	.	.	.	.	.	.	.	.
.	.	.	16a\	.	16cc#\	.	.	.	.	.	.	.	.	.	.	.	.	.	.	.	.	.
.	.	.	16g#\JJ	.	16b\JJ	.	.	.	.	.	.	.	.	.	.	.	.	.	.	.	.	.
!LO:LB:g=original	!	!	!	!	!	!	!	!	!	!LO:LB:g=original	!	!	!LO:LB:g=original	!	!	!	!	!	!	!	!	!
=106	=106	=106	=106	=106	=106	=106	=106	=106	=106	=106	=106	=106	=106	=106	=106	=106	=106	=106	=106	=106	=106	=106
*tremolo	*	*	*	*	*	*	*	*	*	*	*	*	*	*	*	*	*	*	*	*	*	*
!LO:TX:a:i:t=Tutti	!	!	!	!	!	!	!LO:TX:a:i:t=Tutti:rj	!	!	!LO:TX:a:i:t=Tutti:rj	!	!	!LO:TX:a:i:t=Tutti:rj	!	!	!LO:TX:a:i:t=Tutti	!	!	!LO:TX:a:i:t=Tutti	!LO:DY:rj	!LO:TX:a:i:t=Tutti	!LO:DY:rj
8A\L	.	.	8a/L	.	8cc#\L	.	2.A\	Can-	.	2.e\	Can	.	2.a\	Can-	.	2.cc#\	Can	.	4e/	f	4e/	f
8A\	.	.	8e 8c#/	.	8a\J	.	.	.	.	.	.	.	.	.	.	.	.	.	.	.	.	.
8A\	.	.	8e 8c#/	.	4e/	.	.	.	.	.	.	.	.	.	.	.	.	.	4e/	.	4e/	.
8A\	.	.	8e 8c#/	.	.	.	.	.	.	.	.	.	.	.	.	.	.	.	.	.	.	.
8A\	.	.	8e 8c#/	.	8r	.	.	.	.	.	.	.	.	.	.	.	.	.	4e/	.	4e/	.
8A\J	.	.	8eJ 8c#/	.	(8cc#\	.	.	.	.	.	.	.	.	.	.	.	.	.	.	.	.	.
!	!	!	!	!	!LO:LB:g=original	!	!	!	!	!	!	!	!	!	!	!	!	!	!	!	!	!
=107	=107	=107	=107	=107	=107	=107	=107	=107	=107	=107	=107	=107	=107	=107	=107	=107	=107	=107	=107	=107	=107	=107
*	*	*	*^	*	*	*	*	*	*	*	*	*	*	*	*	*	*	*	*	*	*	*
*	*	*	*tremolo	*	*	*	*	*	*	*	*	*	*	*	*	*	*	*	*	*	*	*	*
8G#\L	6 5	.	8e/L	8d\L	.	8dd\L)	.	2.G#\	.	.	2.e\	.	.	2.b\	.	.	2.dd\	.	.	2.e/	.	2.e/	.
8G#\	.	.	8e/	8d\	.	8b\|	.	.	.	.	.	.	.	.	.	.	.	.	.	.	.	.	.
8G#\	.	.	8e/	8d\	.	(8a\	.	.	.	.	.	.	.	.	.	.	.	.	.	.	.	.	.
8G#\	.	.	8e/	8d\	.	8g#\)	.	.	.	.	.	.	.	.	.	.	.	.	.	.	.	.	.
8G#\	.	.	8e/	8d\	.	(8f#\	.	.	.	.	.	.	.	.	.	.	.	.	.	.	.	.	.
8G#\J	.	.	8e/J	8d\J	.	8e\J)	.	.	.	.	.	.	.	.	.	.	.	.	.	.	.	.	.
!	!	!	!	!	!	!	!	!	!	!	!	!	!	!	!	!	!	!	!	!LO:LB:g=original	!	!	!
=108	=108	=108	=108	=108	=108	=108	=108	=108	=108	=108	=108	=108	=108	=108	=108	=108	=108	=108	=108	=108	=108	=108	=108
8A\L	.	.	8e/L	8c#\L	.	8cc#\L	.	2.A\	.	.	2.e\	.	.	2.a\	.	.	2.cc#\	.	.	4e/	.	4e/	.
8A\	.	.	8e/	8c#\	.	8a\J	.	.	.	.	.	.	.	.	.	.	.	.	.	.	.	.	.
8A\	.	.	8e/	8c#\	.	4e/	.	.	.	.	.	.	.	.	.	.	.	.	.	4e/	.	4e/	.
8A\	.	.	8e/	8c#\	.	.	.	.	.	.	.	.	.	.	.	.	.	.	.	.	.	.	.
8A\	.	.	8e/	8c#\	.	8r	.	.	.	.	.	.	.	.	.	.	.	.	.	4e/	.	4e/	.
8A\J	.	.	8e/J	8c#\J	.	(8cc#\	.	.	.	.	.	.	.	.	.	.	.	.	.	.	.	.	.
=109	=109	=109	=109	=109	=109	=109	=109	=109	=109	=109	=109	=109	=109	=109	=109	=109	=109	=109	=109	=109	=109	=109	=109
8G#\L	6 5	.	8e/L	8d\L	.	8dd\L)	.	2.G#\	.	.	2.e\	.	.	2.b\	.	.	2.dd\	.	.	2.e/	.	2.e/	.
8G#\	.	.	8e/	8d\	.	8b\|	.	.	.	.	.	.	.	.	.	.	.	.	.	.	.	.	.
8G#\	.	.	8e/	8d\	.	(8a\	.	.	.	.	.	.	.	.	.	.	.	.	.	.	.	.	.
8G#\	.	.	8e/	8d\	.	8g#\)	.	.	.	.	.	.	.	.	.	.	.	.	.	.	.	.	.
8G#\	.	.	8e/	8d\	.	(8f#\	.	.	.	.	.	.	.	.	.	.	.	.	.	.	.	.	.
8G#\J	.	.	8e/J	8d\J	.	8e\J)	.	.	.	.	.	.	.	.	.	.	.	.	.	.	.	.	.
*Xtremolo	*	*	*	*Xtremolo	*	*	*	*	*	*	*	*	*	*	*	*	*	*	*	*	*	*	*
*	*	*	*v	*v	*	*	*	*	*	*	*	*	*	*	*	*	*	*	*	*	*	*	*
!	!	!	!LO:LB:g=original	!	!	!	!	!	!	!	!	!	!	!	!	!	!	!	!	!	!	!
=110	=110	=110	=110	=110	=110	=110	=110	=110	=110	=110	=110	=110	=110	=110	=110	=110	=110	=110	=110	=110	=110	=110
!	!	!	!LO:TX:t=P:problem=mixed beam	!	!	!	!	!	!	!	!	!	!	!	!	!	!	!	!	!	!	!
4A\	.	.	8c#/L	.	8a\L	.	4A\	.	.	2e\	.	.	4a\	.	.	4cc#\	.	.	4c#/	.	4a\	.
.	.	.	8a\	.	8cc#\	.	.	.	.	.	.	.	.	.	.	.	.	.	.	.	.	.
4E\	.	.	8g#\	.	8b\	.	4E\	.	.	.	.	.	4b\	.	.	4dd\	.	.	4r	.	4r	.
.	.	.	8b\	.	8dd\	.	.	.	.	.	.	.	.	.	.	.	.	.	.	.	.	.
4A\	.	.	8a\	.	8cc#\	.	4A\	.	.	4A/	.	.	4cc#\	.	.	4ee\	.	.	4r	.	4r	.
.	.	.	8cc#\J	.	8ee\J	.	.	.	.	.	.	.	.	.	.	.	.	.	.	.	.	.
=111	=111	=111	=111	=111	=111	=111	=111	=111	=111	=111	=111	=111	=111	=111	=111	=111	=111	=111	=111	=111	=111	=111
4F#\	7	.	4cc#\	.	4ee\	.	4F#\	.	.	4A/	.	.	4cc#\	.	.	4ee\	.	.	2.r	.	2.r	.
4G#\	5	.	4b\	.	4dd\	.	4G#\	.	.	4G#/	.	.	4b\	.	.	4dd\	.	.	.	.	.	.
4A\	.	.	4a\	.	4cc#\	.	4A\	.	.	4E/	.	.	4a\	.	.	4cc#\	.	.	.	.	.	.
!LO:LB:g=original	!	!	!	!	!	!	!LO:LB:g=original	!	!	!	!	!	!	!	!	!LO:LB:g=original	!	!	!	!	!	!
=112	=112	=112	=112	=112	=112	=112	=112	=112	=112	=112	=112	=112	=112	=112	=112	=112	=112	=112	=112	=112	=112	=112
4D\	.	.	8cc#\L	.	8ee\L	.	4D\	.	.	4A\	can-	.	8cc#\L	.	.	8ee\L	can-	.	4r	.	4r	.
.	.	.	8b\J	.	8dd\J	.	.	.	.	.	.	.	8b\J	.	.	8dd\J	.	.	.	.	.	.
4E\	.	.	4a\	.	4cc#\	.	4.E\	-di-	.	4.e\	-di-	.	4a\	-di-	.	4cc#\	-di-	.	4a\	.	4cc#\	.
4EE/	.	.	4g#\	.	4b\	.	.	.	.	.	.	.	4g#\	-di-	.	4b\	-di-	.	4e/	.	4a\	.
.	.	.	.	.	.	.	8E\	-di-	.	8e\	-di-	.	.	.	.	.	.	.	.	.	.	.
=113	=113	=113	=113	=113	=113	=113	=113	=113	=113	=113	=113	=113	=113	=113	=113	=113	=113	=113	=113	=113	=113	=113
*	*	*	*	*	*	*	*	*	*	*	*	*	*	*	*^	*	*	*	*	*	*	*
*tremolo	*	*	*	*	*	*	*	*	*	*	*	*	*	*	*	*	*	*	*	*	*	*	*
!	!	!LO:DY:t=piano	!	!LO:DY:t=pia&colon;	!	!LO:DY:t=pia.	!	!	!LO:DY:a:t=pia&colon;	!	!	!LO:DY:a:t=pia&colon;	!	!	!LO:DY:a:t=piane.	!LO:DY:b	!	!	!LO:DY:a	!	!	!	!
8A\L	.	p	8a/L	p	8ccc#\L	p	4AA/	-or	p	4e\	-or	p	4a\	-or	p	p	4cc#\	-or	p	4a\	p	4cc#\	p
8A\	.	.	8e 8c#/	.	8aa\J	.	.	.	.	.	.	.	.	.	.	.	.	.	.	.	.	.	.
8A\	.	.	8e 8c#/	.	4ee\	.	2A\	can-	.	2e\	can-	.	2a\	can-	.	.	2cc#\	Can-	.	4e/	.	4e/	.
8A\	.	.	8e 8c#/	.	.	.	.	.	.	.	.	.	.	.	.	.	.	.	.	.	.	.	.
8A\	.	.	8e 8c#/	.	8r	.	.	.	.	.	.	.	.	.	.	.	.	.	.	4e/	.	4e/	.
8A\J	.	.	8eJ 8c#/	.	(8ccc#\	.	.	.	.	.	.	.	.	.	.	.	.	.	.	.	.	.	.
*	*	*	*	*	*	*	*	*	*	*	*	*	*	*	*v	*v	*	*	*	*	*	*	*
!	!	!	!	!LO:LB:g=original	!	!	!	!	!	!	!	!	!	!	!	!	!	!	!	!	!	!
=114	=114	=114	=114	=114	=114	=114	=114	=114	=114	=114	=114	=114	=114	=114	=114	=114	=114	=114	=114	=114	=114	=114
*	*	*	*^	*	*	*	*	*	*	*	*	*	*	*	*	*	*	*	*	*	*	*
*	*	*	*tremolo	*	*	*	*	*	*	*	*	*	*	*	*	*	*	*	*	*	*	*	*
8G#\L	6 5	.	8e/L	8d\L	.	8ddd\L)	.	2.G#\	.	.	2.e\	.	.	2.b\	.	.	2.dd\	.	.	2.e/	.	2.e/	.
8G#\	.	.	8e/	8d\	.	8bb\|	.	.	.	.	.	.	.	.	.	.	.	.	.	.	.	.	.
8G#\	.	.	8e/	8d\	.	(8aa\	.	.	.	.	.	.	.	.	.	.	.	.	.	.	.	.	.
8G#\	.	.	8e/	8d\	.	8gg#\)	.	.	.	.	.	.	.	.	.	.	.	.	.	.	.	.	.
8G#\	.	.	8e/	8d\	.	(8ff#\	.	.	.	.	.	.	.	.	.	.	.	.	.	.	.	.	.
8G#\J	.	.	8e/J	8d\J	.	8ee\J)	.	.	.	.	.	.	.	.	.	.	.	.	.	.	.	.	.
!	!	!	!	!	!	!	!	!	!	!	!	!	!	!LO:LB:g=original	!	!	!	!	!	!	!	!LO:LB:g=original	!
=115	=115	=115	=115	=115	=115	=115	=115	=115	=115	=115	=115	=115	=115	=115	=115	=115	=115	=115	=115	=115	=115	=115	=115
8A\L	.	.	8e/L	8c#\L	.	8ccc#\L	.	2.A\	.	.	2.e\	.	.	2.a\	.	.	2.cc#\	.	.	4e/	.	4e/	.
8A\	.	.	8e/	8c#\	.	8aa\J	.	.	.	.	.	.	.	.	.	.	.	.	.	.	.	.	.
8A\	.	.	8e/	8c#\	.	4ee\	.	.	.	.	.	.	.	.	.	.	.	.	.	4e/	.	4e/	.
8A\	.	.	8e/	8c#\	.	.	.	.	.	.	.	.	.	.	.	.	.	.	.	.	.	.	.
8A\	.	.	8e/	8c#\	.	8r	.	.	.	.	.	.	.	.	.	.	.	.	.	4e/	.	4e/	.
8A\J	.	.	8e/J	8c#\J	.	(8ccc#\	.	.	.	.	.	.	.	.	.	.	.	.	.	.	.	.	.
=116	=116	=116	=116	=116	=116	=116	=116	=116	=116	=116	=116	=116	=116	=116	=116	=116	=116	=116	=116	=116	=116	=116	=116
!	!	!	!	!	!	!	!	!	!	!	!LO:N:vis=2.	!	!	!	!	!	!	!	!	!	!	!	!
8G#\L	6 5	.	8e/L	8d\L	.	8ddd\L)	.	2G#\	-di-	.	2e\	-di-	.	4b\	.	.	4dd\	.	.	2.e/	.	2.e/	.
8G#\	.	.	8e/	8d\	.	8bb\|	.	.	.	.	.	.	.	.	.	.	.	.	.	.	.	.	.
8G#\	.	.	8e/	8d\	.	(8aa\	.	.	.	.	.	.	.	4.b\	-di-	.	4.dd\	-di-	.	.	.	.	.
8G#\	.	.	8e/	8d\	.	8gg#\)	.	.	.	.	.	.	.	.	.	.	.	.	.	.	.	.	.
8G#\	.	.	8e/	8d\	.	(8ff#\	.	4G#\	-di-	.	4e\	-di-	.	.	.	.	.	.	.	.	.	.	.
8G#\J	.	.	8e/J	8d\J	.	8ee\J)	.	.	.	.	.	.	.	8b\	-di-	.	8dd\	-di-	.	.	.	.	.
*Xtremolo	*	*	*	*Xtremolo	*	*	*	*	*	*	*	*	*	*	*	*	*	*	*	*	*	*	*
*	*	*	*v	*v	*	*	*	*	*	*	*	*	*	*	*	*	*	*	*	*	*	*	*
!	!	!	!	!	!	!	!	!	!	!LO:LB:g=original	!	!	!	!	!	!	!	!	!LO:LB:g=original	!	!	!
=117	=117	=117	=117	=117	=117	=117	=117	=117	=117	=117	=117	=117	=117	=117	=117	=117	=117	=117	=117	=117	=117	=117
!	!	!LO:DY:t=for	!	!	!	!	!	!	!	!	!	!	!	!	!	!	!	!	!	!	!	!
4A\	.	f	8aa\L|	f	8aa\L|	f	4A\	-or	.	4e\	-or	.	4a\	-or	.	4cc#\	-or	.	4c#/	.	4a\	.
.	.	.	8gg#\|	.	8gg#\|	.	.	.	.	.	.	.	.	.	.	.	.	.	.	.	.	.
4r	.	.	8ff#\|	.	8ff#\|	.	4r	.	.	4r	.	.	4r	.	.	4r	.	.	4r	.	4r	.
.	.	.	8ee\|	.	8ee\|	.	.	.	.	.	.	.	.	.	.	.	.	.	.	.	.	.
4r	.	.	8dd\|	.	8dd\|	.	4r	.	.	4r	.	.	4r	.	.	4r	.	.	4r	.	4r	.
.	.	.	8cc#\J|	.	8cc#\J|	.	.	.	.	.	.	.	.	.	.	.	.	.	.	.	.	.
!LO:LB:g=original	!	!	!LO:LB:g=original	!	!	!	!	!	!	!	!	!	!	!	!	!	!	!	!	!	!	!
=118	=118	=118	=118	=118	=118	=118	=118	=118	=118	=118	=118	=118	=118	=118	=118	=118	=118	=118	=118	=118	=118	=118
4F#\	.	.	8ff#\L|	.	8ff#\L|	.	2.r	.	.	2.r	.	.	2.r	.	.	2.r	.	.	2.r	.	2.r	.
.	.	.	8ee\|	.	8ee\|	.	.	.	.	.	.	.	.	.	.	.	.	.	.	.	.	.
4r	.	.	8dd\|	.	8dd\|	.	.	.	.	.	.	.	.	.	.	.	.	.	.	.	.	.
.	.	.	8cc#\|	.	8cc#\|	.	.	.	.	.	.	.	.	.	.	.	.	.	.	.	.	.
4r	.	.	8b\|	.	8b\|	.	.	.	.	.	.	.	.	.	.	.	.	.	.	.	.	.
.	.	.	8a\J|	.	8a\J|	.	.	.	.	.	.	.	.	.	.	.	.	.	.	.	.	.
=119	=119	=119	=119	=119	=119	=119	=119	=119	=119	=119	=119	=119	=119	=119	=119	=119	=119	=119	=119	=119	=119	=119
*	*	*	*	*	*	*	*	*	*^	*	*	*^	*	*	*^	*	*	*	*	*	*	*
!	!	!	!	!	!	!	!	!	!LO:DY:a:rj:t=forte	!LO:DY:b:rj	!	!	!LO:DY:a	!LO:DY:b:t=forte	!	!	!LO:DY:a:t=forte	!LO:DY:b:t=forte	!	!	!LO:DY:a:t=forte	!	!	!	!
4D\	.	.	8d/L	.	8b\L	.	4D\	can-	f	f	4f#\	can-	f	f	4b\	can-	f	f	4dd\	can-	f	4r	.	4r	.
.	.	.	8f#/J	.	8dd\J	.	.	.	.	.	.	.	.	.	.	.	.	.	.	.	.	.	.	.	.
4E\	6 4	.	4e/	.	4cc#\	.	4.E\	-di-	.	.	4.e\	-di-	.	.	4a\	-di-	.	.	4cc#\	-di-	.	4a\	.	4cc#\	.
4EE/	5 3	.	4d/	.	4b\	.	.	.	.	.	.	.	.	.	4g#\	-di-	.	.	4b\	-di-	.	4e/	.	4b\	.
.	.	.	.	.	.	.	8E\	-di-	.	.	8e\	-di-	.	.	.	.	.	.	.	.	.	.	.	.	.
*	*	*	*	*	*	*	*	*	*v	*v	*	*	*v	*v	*	*	*v	*v	*	*	*	*	*	*	*
!	!	!	!	!	!LO:LB:g=original	!	!LO:LB:g=original	!	!	!	!	!	!	!	!	!	!	!	!	!	!	!
=120	=120	=120	=120	=120	=120	=120	=120	=120	=120	=120	=120	=120	=120	=120	=120	=120	=120	=120	=120	=120	=120	=120
4AA/	.	.	4c#/	.	4a\	.	4AA/	-or.	.	4e\	-or.	.	4a\	-or	.	4cc#\	-or.	.	4c#/	.	4a\	.
4A\	.	.	4a 4e 4c#/	.	4aa 4cc#\	.	4r	.	.	4r	.	.	4r	.	.	4r	.	.	4a\	.	4cc#\	.
4A\	.	.	4a 4e 4c#/	.	4aa 4cc#\	.	4r	.	.	4r	.	.	4r	.	.	4r	.	.	4a\	.	4cc#\	.
=121	=121	=121	=121	=121	=121	=121	=121	=121	=121	=121	=121	=121	=121	=121	=121	=121	=121	=121	=121	=121	=121	=121
2A\	.	.	4a 4e 4c#/	.	4aa 4cc#\	.	2.r	.	.	2.r	.	.	2.r	.	.	2.r	.	.	4a\	.	4cc#\	.
.	.	.	4r	.	4r	.	.	.	.	.	.	.	.	.	.	.	.	.	4r	.	4r	.
4r	.	.	4r	.	4r	.	.	.	.	.	.	.	.	.	.	.	.	.	4r	.	4r	.
==	==	==	==	==	==	==	==	==	==	==	==	==	==	==	==	==	==	==	==	==	==	==
*-	*-	*-	*-	*-	*-	*-	*-	*-	*-	*-	*-	*-	*-	*-	*-	*-	*-	*-	*-	*-	*-	*-
!!!system-decoration: [(g1)][(g2)][(g3)]<s9>
!!!RDF**kern: > = above
!!!RDF**kern: < = below
!!!RDF**kern: | = vertical stroke
!!!RDF**dynam: p = "piano."
!!!RDF**dynam: f = "for:"
!!!ENC: Tomasz Grochalski
!!!END: 2020-09-08
!!!ENC: Andrzej Kubiczek
!!!END: 2022-01-26
!!!YEC: Copyright 2022 Narodowy Instytut Fryderyka Chopina (https://polishscores.org)
!!!YEM: License CC-BY-4.0 (https://creativecommons.org/licenses/by/4.0)
